P2
112 112
255
0 0 0 0 0 0 0 0 0 0 0 0 0 0 0 0 0 0 0 0 0 0 0 0 0 0 0 0 0 0 0 0 0 0 0 0 0 0 0 0 0 0 0 0 0 0 0 0 0 0 0 0 0 0 0 0 0 0 0 0 0 0 0 0 0 0 0 0 0 0 0 0 0 0 0 0 0 0 0 0 0 0 0 0 0 0 0 0 0 0 0 0 0 0 0 0 0 0 0 0 0 0 0 0 0 0 0 0 0 0 0 0 
0 0 0 0 0 0 0 0 0 0 0 0 0 0 0 0 0 0 0 0 0 0 0 0 0 0 0 0 0 0 0 0 0 0 0 0 0 0 0 0 0 0 0 0 0 0 0 0 0 0 0 0 0 0 0 0 0 0 0 0 0 0 0 0 0 0 0 0 0 0 0 0 0 0 0 0 0 0 0 0 0 0 0 0 0 0 0 0 0 0 0 0 0 0 0 0 0 0 0 0 0 0 0 0 0 0 0 0 0 0 0 0 
0 0 0 0 0 0 0 0 0 0 0 0 0 0 0 0 0 0 0 0 0 0 0 0 0 0 0 0 0 0 0 0 0 0 0 0 0 0 0 0 0 0 0 0 0 0 0 0 0 0 0 0 0 0 0 0 0 0 0 0 0 0 0 0 0 0 0 1 2 6 9 12 9 6 2 0 0 0 0 0 0 0 0 0 0 0 0 0 0 0 0 0 0 0 0 0 0 0 0 0 0 0 0 0 0 0 0 0 0 0 0 0 
0 0 0 0 0 0 0 0 0 0 0 0 0 0 1 3 3 3 3 1 0 0 0 0 0 0 0 0 0 0 0 0 0 0 0 0 0 0 0 0 0 1 2 4 5 4 2 1 0 0 0 0 0 0 0 0 0 0 0 0 0 0 0 0 0 1 3 9 23 58 93 122 106 69 27 7 2 0 0 0 0 0 0 0 0 0 0 0 0 0 0 0 0 0 0 0 0 0 0 0 0 1 1 1 0 0 0 0 0 0 0 0 
0 0 0 0 0 0 0 0 0 0 0 0 2 14 51 109 123 110 76 28 5 0 0 0 0 0 0 0 0 0 0 0 0 0 0 0 1 1 3 4 8 14 30 71 85 58 20 7 2 0 0 0 0 0 0 0 0 0 0 0 0 0 0 0 1 3 12 27 65 118 179 207 201 157 90 35 14 3 0 0 0 0 0 0 0 0 0 0 0 0 0 0 0 0 0 0 1 4 11 27 53 74 66 40 21 10 3 0 0 0 0 0 
0 0 0 0 0 0 0 0 0 0 0 1 18 77 187 227 223 214 174 98 24 3 0 0 0 0 0 0 0 0 0 0 0 0 1 1 2 3 5 7 13 23 54 128 163 119 50 13 2 0 0 0 0 0 0 0 0 0 0 0 0 0 0 0 1 4 13 37 93 162 212 219 217 205 149 76 26 7 1 0 0 0 0 0 0 0 0 0 0 0 0 0 0 0 2 11 41 83 123 150 181 199 197 162 129 74 24 3 0 0 0 0 
0 0 0 0 0 0 0 0 0 0 0 9 82 186 237 238 231 227 209 161 65 9 1 0 0 0 0 0 0 0 0 0 0 0 1 1 2 3 4 5 8 15 43 123 192 149 56 9 1 0 0 0 0 0 0 0 0 0 0 0 0 0 0 0 1 4 15 52 115 170 188 171 172 184 160 107 45 12 2 0 0 0 0 0 0 0 0 0 0 0 0 0 0 2 12 61 134 172 210 226 240 245 244 238 215 135 42 7 1 0 0 0 
0 0 0 0 0 0 0 0 0 0 4 53 181 235 235 213 196 202 202 200 128 28 3 0 0 0 0 0 0 0 0 0 0 0 1 1 2 2 3 3 7 14 47 141 209 142 39 4 1 0 0 0 0 0 0 0 0 0 0 0 0 0 0 0 1 4 20 68 124 144 124 111 122 149 166 151 81 21 3 0 0 0 0 0 0 0 0 0 0 0 0 0 1 5 34 115 190 217 227 230 233 240 244 245 234 146 39 4 0 0 0 0 
0 0 0 0 0 0 0 0 0 1 20 135 234 240 204 149 118 141 169 197 163 65 9 1 0 0 0 0 0 0 0 0 0 0 0 1 2 2 2 3 6 15 66 161 207 111 23 2 0 0 0 0 0 0 0 0 0 0 0 0 0 0 0 0 1 5 26 83 128 112 74 66 74 111 158 174 116 34 5 0 0 0 0 0 0 0 0 0 0 0 0 0 3 14 52 123 202 211 205 198 191 213 236 241 226 127 33 3 0 0 0 0 
0 0 0 0 0 0 0 0 0 6 85 232 244 213 132 60 48 76 135 186 189 105 18 1 0 0 0 0 0 0 0 0 0 0 0 1 2 2 2 2 6 23 90 188 199 81 11 1 0 0 0 0 0 0 0 0 0 0 0 0 0 0 0 0 1 4 30 94 114 68 33 27 41 84 161 195 140 46 7 1 0 0 0 0 0 0 0 0 0 0 0 1 4 16 54 116 175 169 165 163 177 219 241 234 187 73 15 1 0 0 0 0 
0 0 0 0 0 0 0 0 2 47 204 247 225 125 51 20 16 31 81 170 210 134 25 2 0 0 0 0 0 0 0 0 0 0 0 1 1 1 1 2 7 34 125 212 177 56 6 1 0 0 0 0 0 0 0 0 0 0 0 0 0 0 0 0 1 5 33 89 92 51 22 17 25 67 159 205 143 44 7 1 0 0 0 0 0 0 0 0 0 0 0 1 4 23 68 127 177 181 190 209 225 242 240 197 107 28 4 0 0 0 0 0 
0 0 0 0 0 0 0 0 19 143 245 242 147 37 10 5 7 14 48 151 216 151 30 2 0 0 0 0 0 0 0 0 0 0 0 0 0 0 0 1 6 45 158 222 147 36 3 0 0 0 0 0 0 0 0 0 0 0 0 0 0 0 0 0 1 8 33 77 68 39 22 18 25 61 144 207 140 38 5 0 0 0 0 0 0 0 0 0 0 0 0 1 7 36 88 149 198 217 232 240 242 240 211 121 42 6 0 0 0 0 0 0 
0 0 0 0 0 0 0 4 72 217 248 209 70 13 3 2 3 7 32 133 218 167 33 3 0 0 0 0 0 0 0 0 0 0 0 0 0 0 0 1 6 61 196 217 100 20 2 0 0 0 0 0 0 0 0 0 0 0 0 0 0 0 0 1 4 16 48 86 57 30 18 16 22 68 162 216 143 35 4 0 0 0 0 0 0 0 0 0 0 0 0 2 15 58 144 211 233 242 244 243 241 228 170 78 17 1 0 0 0 0 0 0 
0 0 0 0 0 0 1 18 144 245 242 129 23 4 2 1 2 6 29 116 224 172 37 3 0 0 0 0 0 0 0 0 0 0 0 0 0 0 0 1 10 101 222 197 63 11 2 0 0 0 0 0 0 0 0 0 0 0 0 0 0 0 1 3 15 55 109 131 82 49 28 24 36 94 189 215 125 24 3 0 0 0 0 0 0 0 0 0 0 0 0 3 25 89 166 212 231 233 234 235 234 224 164 66 8 0 0 0 0 0 0 0 
0 0 0 0 0 0 2 50 213 246 202 61 7 1 1 0 1 5 33 133 230 167 33 2 0 0 0 0 0 0 0 0 0 0 0 0 0 0 0 1 20 149 231 171 44 6 1 0 0 0 0 0 0 0 0 0 0 0 0 0 0 1 3 15 56 123 170 167 125 92 57 48 67 135 220 205 96 16 2 0 0 0 0 0 0 0 0 0 0 0 1 5 31 76 116 143 172 169 169 191 217 228 188 89 8 0 0 0 0 0 0 0 
0 0 0 0 0 0 7 104 234 232 123 18 2 0 0 0 1 4 40 154 233 158 26 1 0 0 0 0 0 0 0 0 0 0 0 0 0 0 0 2 41 185 225 130 24 3 1 0 0 0 0 0 0 0 0 0 0 0 0 0 0 3 11 43 108 180 188 159 125 94 65 67 104 180 230 182 69 9 1 0 0 0 0 0 0 0 0 0 0 0 1 5 19 43 57 56 59 45 47 99 186 233 213 114 12 0 0 0 0 0 0 0 
0 0 0 0 0 1 19 151 235 209 83 6 1 0 0 0 0 6 57 185 227 123 16 1 0 0 0 0 0 0 0 0 0 0 0 0 0 0 1 7 81 207 194 78 10 1 0 0 0 0 0 0 0 0 0 0 0 0 0 0 2 7 30 90 165 188 144 109 86 70 64 87 144 213 222 139 43 5 1 0 0 0 0 0 0 0 0 0 0 1 2 5 12 19 15 11 9 6 7 40 166 241 228 127 13 0 0 0 0 0 0 0 
0 0 0 0 0 1 31 163 232 188 51 2 0 0 0 0 1 19 106 221 215 73 8 0 0 0 0 0 0 0 0 0 0 0 0 0 0 0 2 22 134 207 148 38 5 2 1 1 0 0 0 0 0 0 0 0 0 0 0 1 4 14 59 139 191 160 99 71 59 59 74 115 190 223 205 107 29 5 1 0 0 0 0 0 0 0 0 1 3 8 14 15 14 9 4 2 1 1 2 35 188 247 231 107 10 0 0 0 0 0 0 0 
0 0 0 0 0 1 38 166 227 170 28 1 0 0 0 1 10 87 202 233 166 31 4 0 0 0 0 0 0 0 0 0 0 0 0 0 0 1 8 53 166 190 97 21 4 2 2 2 1 1 0 0 0 0 0 0 0 0 0 1 6 25 86 162 173 110 68 53 59 70 105 165 215 222 177 84 25 5 1 0 0 0 0 0 0 0 1 5 28 66 73 53 22 9 3 1 1 1 6 91 222 248 219 74 5 0 0 0 0 0 0 0 
0 0 0 0 0 2 38 164 216 166 29 3 1 1 2 13 83 190 230 190 66 9 1 0 0 0 0 0 0 0 0 0 0 0 0 0 1 4 24 102 185 159 57 11 5 4 5 6 3 2 1 0 0 0 0 0 0 0 0 1 8 37 104 168 160 108 82 79 98 128 170 206 224 208 134 58 17 4 1 0 0 0 0 0 1 1 3 21 79 135 146 121 72 31 13 7 9 17 74 189 244 246 158 28 1 0 0 0 0 0 0 0 
0 0 0 0 0 2 31 140 210 167 50 13 8 10 42 119 202 235 211 85 18 2 0 0 0 0 0 0 0 0 0 0 0 0 0 1 4 15 65 152 181 126 42 10 5 5 7 8 5 3 1 0 0 0 0 0 0 0 0 2 10 39 105 182 195 177 159 163 185 199 212 218 215 172 101 45 12 3 1 0 0 0 0 0 1 1 7 39 112 190 207 191 154 113 76 50 78 127 207 246 249 221 69 8 0 0 0 0 0 0 0 0 
0 0 0 0 0 2 21 107 190 203 158 94 80 127 194 229 236 202 95 18 2 0 0 0 0 0 0 0 0 0 0 0 0 0 0 2 10 49 129 184 178 123 41 10 5 5 7 8 5 4 1 0 0 0 0 0 0 0 0 2 9 28 83 156 199 216 217 217 217 211 202 190 168 124 71 33 9 2 0 0 0 0 0 0 2 2 7 37 115 200 227 225 221 216 212 206 220 241 249 246 214 94 14 1 0 0 0 0 0 0 0 0 
0 0 0 0 0 1 9 55 139 216 235 231 229 235 237 224 171 77 22 2 0 0 0 0 0 0 0 0 0 0 0 0 0 0 0 2 16 62 143 179 160 120 49 13 7 5 4 4 3 2 1 0 0 0 0 0 0 0 0 1 3 12 35 83 142 187 197 187 165 150 144 130 107 71 45 22 5 1 0 0 0 0 0 0 1 1 3 19 67 138 208 230 239 244 247 249 250 249 240 187 77 16 2 0 0 0 0 0 0 0 0 0 
0 0 0 0 0 0 3 16 60 136 196 217 220 209 166 109 35 8 1 0 0 0 0 0 0 0 0 0 0 0 0 0 0 0 0 2 12 43 101 127 112 77 40 16 8 3 2 1 1 1 0 0 0 0 0 0 0 0 0 0 0 2 7 20 37 52 45 33 24 25 29 28 22 16 12 6 1 0 0 0 0 0 0 0 0 0 0 4 19 54 126 172 210 226 237 240 230 197 122 28 6 1 0 0 0 0 0 0 0 0 0 0 
0 0 0 0 0 0 0 1 5 14 28 40 41 26 12 5 1 0 0 0 0 0 0 0 0 0 0 0 0 0 0 0 0 0 0 0 2 7 14 18 13 8 4 2 1 0 0 0 0 0 0 0 0 0 0 0 0 0 0 0 0 0 0 1 1 1 0 0 0 0 1 1 1 1 1 0 0 0 0 0 0 0 0 0 0 0 0 0 2 9 18 30 53 66 81 85 62 25 8 1 0 0 0 0 0 0 0 0 0 0 0 0 
0 0 0 0 0 0 0 0 0 0 0 0 0 0 0 0 0 0 0 0 0 0 0 0 0 0 0 0 0 0 0 0 0 0 0 0 0 0 0 0 0 0 0 0 0 0 0 0 0 0 0 0 0 0 0 0 0 0 0 0 0 0 0 0 0 0 0 0 0 0 0 0 0 0 0 0 0 0 0 0 0 0 0 0 0 0 0 0 0 0 0 0 0 1 1 2 1 0 0 0 0 0 0 0 0 0 0 0 0 0 0 0 
0 0 0 0 0 0 0 0 0 0 0 0 0 0 0 0 0 0 0 0 0 0 0 0 0 0 0 0 0 0 0 0 0 0 0 0 0 0 0 0 0 0 0 0 0 0 0 0 0 0 0 0 0 0 0 0 0 0 0 0 0 0 0 0 0 0 0 0 0 0 0 0 0 0 0 0 0 0 0 0 0 0 0 0 0 0 0 0 0 0 0 0 0 0 0 0 0 0 0 0 0 0 0 0 0 0 0 0 0 0 0 0 
0 0 0 0 0 0 0 0 0 0 0 0 0 0 0 0 0 0 0 0 0 0 0 0 0 0 0 0 0 0 0 0 0 0 0 0 0 0 0 0 0 0 0 0 0 0 0 0 0 0 0 0 0 0 0 0 0 0 0 0 0 0 0 0 0 0 0 0 0 0 0 0 0 0 0 0 0 0 0 0 0 0 0 0 0 0 0 0 0 0 0 0 0 0 0 0 0 0 0 0 0 0 0 0 0 0 0 0 0 0 0 0 
0 0 0 0 0 0 0 0 0 0 0 0 0 0 0 0 0 0 0 0 0 0 0 0 0 0 0 0 0 0 0 0 0 0 0 0 0 0 0 0 0 0 0 0 0 0 0 0 0 0 0 0 0 0 0 0 0 0 0 0 0 0 0 0 0 0 0 0 0 0 0 1 1 1 0 0 0 0 0 0 0 0 0 0 0 0 0 0 0 0 0 0 0 0 0 0 0 0 0 0 0 0 0 0 0 0 0 0 0 0 0 0 
0 0 0 0 0 0 0 0 0 0 0 0 0 0 0 0 0 0 0 0 0 0 0 0 0 0 0 0 0 0 0 0 0 0 0 0 0 0 0 0 0 0 0 0 0 0 0 0 0 0 0 0 0 0 0 0 0 0 0 0 0 0 0 0 0 0 0 0 0 1 1 1 1 1 1 1 0 0 0 0 0 0 0 0 0 0 0 0 0 0 0 0 0 0 0 0 0 0 0 0 0 0 0 0 0 0 0 0 0 0 0 0 
0 0 0 0 0 0 0 0 0 0 0 0 0 0 0 0 0 0 0 0 0 0 0 0 0 0 0 0 0 0 0 0 0 0 0 0 0 0 0 0 0 0 0 0 0 0 0 0 0 0 0 0 0 0 0 0 0 0 0 0 0 0 1 2 2 2 3 4 6 10 14 16 15 11 6 3 1 0 0 0 0 0 0 0 0 0 0 0 0 0 0 0 0 0 0 0 0 0 0 0 0 0 0 0 0 0 0 0 0 0 0 0 
0 0 0 0 0 0 0 0 0 0 0 0 1 1 2 2 2 2 1 1 1 1 0 0 0 0 0 0 0 0 0 0 0 0 0 0 0 0 0 0 0 0 0 0 0 0 0 0 0 0 0 0 0 0 0 0 0 0 0 0 0 1 4 5 6 8 9 13 22 35 53 66 65 40 17 6 1 0 0 0 0 0 0 0 0 0 0 0 0 0 0 0 0 0 0 0 0 0 0 0 0 0 0 0 0 0 0 0 0 0 0 0 
0 0 0 0 0 0 0 0 1 1 2 5 8 11 13 13 11 9 10 9 7 5 2 1 0 0 0 0 0 0 0 0 0 0 0 0 0 0 1 1 1 0 0 0 0 0 0 0 0 1 1 1 0 0 0 0 0 0 0 0 1 3 7 9 11 11 10 13 22 39 73 95 88 45 13 3 0 0 0 0 0 0 0 0 0 0 0 0 0 1 2 4 6 3 1 0 0 0 0 0 0 0 0 0 0 0 0 0 0 0 0 0 
0 0 0 0 0 0 0 1 2 5 9 17 25 31 27 21 17 16 19 17 14 10 5 2 1 0 0 0 0 0 0 0 0 1 4 6 9 10 13 17 16 18 22 23 22 15 13 13 18 20 19 13 5 1 0 0 0 0 0 0 1 3 7 10 11 9 6 7 17 35 68 94 78 29 6 1 0 0 0 0 0 0 0 0 0 0 0 1 5 21 44 66 65 52 32 16 10 7 6 4 3 1 1 0 0 0 0 0 0 0 0 0 
0 0 0 0 0 0 0 1 4 10 19 31 40 42 31 22 18 21 31 33 27 16 7 3 1 0 0 0 0 0 0 0 1 5 15 25 37 43 52 62 68 78 85 88 93 92 91 98 93 89 76 53 28 9 2 1 0 0 0 0 0 2 4 6 6 4 2 2 8 30 75 90 49 12 2 0 0 0 0 0 0 0 0 0 0 0 1 4 28 90 134 155 160 158 151 125 118 103 95 80 61 35 16 5 2 1 0 0 0 0 0 0 
0 0 0 0 0 0 1 3 10 26 40 49 51 48 32 22 20 29 50 57 42 19 6 2 1 0 0 0 0 0 0 0 1 11 28 47 65 79 105 128 144 155 165 174 187 190 188 190 185 176 145 102 59 19 3 1 0 0 0 0 0 1 3 4 4 3 1 2 10 48 96 88 33 7 2 1 0 0 0 0 0 0 0 0 0 0 1 9 54 120 172 191 199 198 202 200 197 198 205 200 182 148 93 38 12 3 0 0 0 0 0 0 
0 0 0 0 0 0 1 4 15 38 68 78 70 52 30 21 25 46 77 79 46 18 5 2 0 0 0 0 0 0 0 0 2 16 39 65 95 118 152 170 174 171 174 179 183 183 183 187 182 157 119 85 43 13 2 1 0 0 0 0 0 1 2 3 3 2 2 5 27 104 128 79 21 5 2 2 2 1 1 0 0 0 0 0 0 0 1 6 40 101 152 166 168 156 159 179 189 203 221 233 233 217 166 92 31 7 1 0 0 0 0 0 
0 0 0 0 0 0 1 5 17 45 85 98 79 45 24 20 36 81 116 91 42 14 3 1 0 0 0 0 0 0 0 0 3 21 49 82 110 124 136 130 119 108 113 111 114 114 115 109 95 71 49 34 16 5 1 0 0 0 0 0 0 1 1 1 2 2 4 13 64 163 151 77 23 9 6 6 5 2 1 0 0 0 0 0 0 0 0 2 18 55 74 74 68 45 35 45 63 87 125 169 206 216 194 130 52 13 2 0 0 0 0 0 
0 0 0 0 0 1 2 6 20 55 108 124 85 38 19 20 44 115 138 89 36 11 3 1 0 0 0 0 0 0 0 0 5 29 71 113 131 119 100 78 59 54 54 47 37 35 34 28 24 17 12 12 7 2 0 0 0 0 0 0 0 1 1 1 1 2 6 29 120 201 168 107 57 35 25 19 11 4 1 0 0 0 0 0 0 0 0 1 5 15 19 13 8 3 2 2 5 8 16 54 139 197 208 156 68 16 2 0 0 0 0 0 
0 0 0 0 0 1 4 9 27 77 141 142 75 24 12 19 57 140 151 90 34 10 3 1 0 0 0 0 0 0 0 0 8 44 93 135 147 125 104 82 65 56 47 35 24 19 16 12 10 7 5 5 2 1 0 0 0 0 0 0 0 0 1 1 1 3 13 65 184 214 168 124 91 75 57 38 18 7 2 0 0 0 0 0 0 0 0 0 1 2 2 1 1 0 0 0 0 1 4 26 108 198 220 166 69 15 2 0 0 0 0 0 
0 0 0 0 0 2 5 13 41 108 159 137 52 14 8 20 75 156 155 96 37 12 3 1 0 0 0 0 0 0 0 1 14 58 109 142 163 155 145 128 103 80 61 43 31 23 17 13 9 6 4 3 1 0 0 0 0 0 0 0 0 0 0 0 1 6 36 135 214 196 142 123 118 111 84 55 30 14 5 1 0 0 0 0 0 0 0 0 0 0 0 0 0 0 0 0 0 0 3 31 140 215 219 150 55 12 3 1 0 0 0 0 
0 0 0 0 0 3 9 21 59 127 165 118 46 18 17 43 99 177 166 90 34 11 3 1 0 0 0 0 0 0 0 1 16 61 113 150 180 181 180 178 166 146 123 104 81 64 44 30 22 15 10 6 2 0 0 0 0 0 0 0 0 0 0 1 3 22 94 199 205 162 129 135 140 132 105 77 49 32 15 4 1 0 0 0 0 0 0 0 0 0 0 0 0 0 0 0 0 1 7 68 185 229 204 111 37 13 5 2 0 0 0 0 
0 0 0 0 1 3 11 28 78 139 165 114 71 49 55 91 140 203 155 75 29 10 3 1 0 0 0 0 0 0 0 1 11 44 87 118 150 159 172 179 184 177 173 161 142 118 86 63 56 43 31 17 5 1 0 0 0 0 0 0 0 0 0 1 9 54 159 209 176 144 130 129 115 110 104 99 81 58 29 7 2 0 0 0 0 0 0 0 0 0 0 0 0 0 0 0 1 4 31 142 225 233 184 109 56 25 13 5 1 0 0 0 
0 0 0 0 0 3 11 32 85 140 162 130 112 104 109 136 187 203 133 68 25 9 3 1 0 0 0 0 0 0 0 0 5 18 38 53 74 84 94 101 109 108 110 105 104 99 89 85 90 86 68 36 9 1 0 0 0 0 0 0 0 0 0 2 16 84 184 192 146 137 130 106 76 78 93 108 112 80 34 8 2 0 0 0 0 0 0 0 0 0 0 0 0 0 1 2 6 26 89 205 235 223 173 123 73 38 20 9 3 0 0 0 
0 0 0 0 0 3 11 32 79 125 145 136 125 125 126 166 204 180 102 47 14 4 1 0 0 0 0 0 0 0 0 0 2 6 11 14 16 18 21 23 25 26 28 34 42 50 63 70 84 103 91 48 10 1 0 0 0 0 0 0 0 0 1 3 24 102 189 176 135 132 118 87 68 81 100 131 130 77 27 6 1 0 0 0 0 0 0 0 0 0 0 0 1 2 4 8 21 71 157 232 236 214 165 118 69 38 18 8 2 0 0 0 
0 0 0 0 0 3 10 27 60 84 99 95 88 93 114 162 198 142 69 23 5 2 1 0 0 0 0 0 0 0 0 0 1 3 4 3 3 3 3 3 4 5 6 9 13 20 33 45 71 104 105 52 10 1 0 0 0 0 0 0 0 0 1 4 28 106 180 180 146 135 112 84 76 100 142 158 115 50 13 2 1 0 0 0 0 0 0 0 0 0 0 0 2 5 9 15 40 111 207 238 228 187 133 90 49 26 12 5 1 0 0 0 
0 0 0 0 0 2 6 14 24 33 38 37 38 53 97 164 187 112 43 9 1 1 0 0 0 0 0 0 0 0 0 0 1 3 3 1 1 0 0 0 1 1 1 3 5 11 26 45 83 125 127 53 8 0 0 0 0 0 0 0 0 0 0 4 25 88 167 202 181 155 131 119 139 173 182 147 69 21 3 1 0 0 0 0 0 0 0 0 0 0 0 1 3 8 14 21 59 140 229 234 191 124 70 36 18 10 5 3 1 0 0 0 
0 0 0 0 0 1 2 4 6 7 8 11 18 38 94 169 169 83 22 3 0 0 0 0 0 0 0 0 0 0 0 0 2 7 6 2 1 1 0 0 1 1 2 3 8 19 49 80 122 154 125 37 5 0 0 0 0 0 0 0 0 0 0 4 19 66 148 210 214 202 193 197 206 198 146 67 20 5 1 0 0 0 0 0 0 0 0 0 0 0 0 1 4 8 13 22 68 176 238 212 124 55 22 10 6 4 2 1 0 0 0 0 
0 0 0 0 0 0 1 1 1 2 3 5 11 32 104 180 160 71 13 1 0 0 0 0 0 0 0 0 0 0 0 0 2 13 19 10 6 4 3 3 3 4 7 16 32 62 97 126 149 149 92 23 4 0 0 0 0 0 0 0 0 0 0 2 10 32 87 169 220 229 223 210 179 107 52 18 4 1 0 0 0 0 0 0 0 0 0 0 0 0 0 1 3 6 10 23 91 207 234 173 73 21 6 3 2 1 1 1 0 0 0 0 
0 0 0 0 0 0 0 0 0 1 2 4 10 34 109 177 140 57 11 2 0 0 0 0 0 0 0 0 0 0 0 0 4 24 37 42 31 24 20 20 23 33 55 82 116 140 157 158 143 103 52 12 3 0 0 0 0 0 0 0 0 0 0 0 3 10 31 79 139 165 149 116 68 33 12 4 1 0 0 0 0 0 0 0 0 0 0 0 0 0 0 1 2 5 10 33 123 225 227 132 37 7 2 1 1 1 1 1 0 0 0 0 
0 0 0 0 0 0 0 0 0 1 2 4 9 35 105 167 121 46 12 3 1 0 0 0 0 0 0 0 0 0 0 0 3 18 41 67 86 91 101 108 123 145 173 188 191 175 157 132 82 40 17 4 1 0 0 0 0 0 0 0 0 0 0 0 0 1 3 10 16 25 23 14 6 3 1 0 0 0 0 0 0 0 0 0 0 0 0 0 0 0 1 1 2 6 13 51 154 230 207 100 21 4 2 1 1 1 1 0 0 0 0 0 
0 0 0 0 0 0 0 0 0 0 1 3 9 31 84 131 96 37 11 3 1 0 0 0 0 0 0 0 0 0 0 0 1 7 32 77 122 148 174 197 202 203 203 186 153 112 77 45 18 8 4 1 0 0 0 0 0 0 0 0 0 0 0 0 0 0 0 0 0 0 0 0 0 0 0 0 0 0 0 0 0 0 0 0 0 0 0 0 0 0 1 1 3 9 19 69 163 218 172 79 17 4 2 1 1 1 1 0 0 0 0 0 
0 0 0 0 0 0 0 0 0 0 0 1 4 18 47 72 49 18 5 2 0 0 0 0 0 0 0 0 0 0 0 0 0 2 13 42 83 112 142 155 169 159 128 95 57 28 13 5 2 1 0 0 0 0 0 0 0 0 0 0 0 0 0 0 0 0 0 0 0 0 0 0 0 0 0 0 0 0 0 0 0 0 0 0 0 0 0 0 0 0 0 1 3 7 18 68 141 184 133 57 13 4 2 2 2 1 1 0 0 0 0 0 
0 0 0 0 0 0 0 0 0 0 0 0 1 3 7 13 8 3 1 0 0 0 0 0 0 0 0 0 0 0 0 0 0 0 3 7 15 26 39 49 57 41 20 11 4 2 1 0 0 0 0 0 0 0 0 0 0 0 0 0 0 0 0 0 0 0 0 0 0 0 0 0 0 0 0 0 0 0 0 0 0 0 0 0 0 0 0 0 0 0 0 0 1 2 8 39 89 124 79 32 8 3 1 1 1 1 0 0 0 0 0 0 
0 0 0 0 0 0 0 0 0 0 0 0 0 0 0 0 0 0 0 0 0 0 0 0 0 0 0 0 0 0 0 0 0 0 0 1 1 2 3 3 2 1 1 0 0 0 0 0 0 0 0 0 0 0 0 0 0 0 0 0 0 0 0 0 0 0 0 0 0 0 0 0 0 0 0 0 0 0 0 0 0 0 0 0 0 0 0 0 0 0 0 0 0 0 2 9 18 18 11 7 3 1 1 0 0 0 0 0 0 0 0 0 
0 0 0 0 0 0 0 0 0 0 0 0 0 0 0 0 0 0 0 0 0 0 0 0 0 0 0 0 0 0 0 0 0 0 0 0 0 0 0 0 0 0 0 0 0 0 0 0 0 0 0 0 0 0 0 0 0 0 0 0 0 0 0 0 0 0 0 0 0 0 0 0 0 0 0 0 0 0 0 0 0 0 0 0 0 0 0 0 0 0 0 0 0 0 1 1 1 1 1 1 1 1 0 0 0 0 0 0 0 0 0 0 
0 0 0 0 0 0 0 0 0 0 0 0 0 0 0 0 0 0 0 0 0 0 0 0 0 0 0 0 0 0 0 0 0 0 0 0 0 0 0 0 0 0 0 0 0 0 0 0 0 0 0 0 0 0 0 0 0 0 0 0 0 0 0 0 0 0 0 0 0 0 0 0 0 0 0 0 0 0 0 0 0 0 0 0 0 0 0 0 0 0 0 0 0 0 0 0 0 0 0 0 0 0 0 0 0 0 0 0 0 0 0 0 
0 0 0 0 0 0 0 0 0 0 0 0 0 0 0 0 0 0 0 0 0 0 0 0 0 0 0 0 0 0 0 0 0 0 0 0 0 0 0 0 0 0 0 0 0 0 0 0 0 0 0 0 0 0 0 0 0 0 0 0 0 0 0 0 0 0 0 0 0 0 0 0 0 0 0 0 0 0 0 0 0 0 0 0 0 0 0 0 0 0 0 0 0 0 0 0 0 0 0 0 0 0 0 0 0 0 0 0 0 0 0 0 
0 0 0 0 0 0 0 0 0 0 0 0 0 0 0 0 0 0 0 0 0 0 0 0 0 0 0 0 0 0 0 0 0 0 0 0 0 0 0 0 0 0 0 0 0 0 0 0 0 0 0 0 0 0 0 0 0 0 0 0 0 0 0 0 0 0 0 0 1 1 1 0 0 0 0 0 0 0 0 0 0 0 0 0 0 0 0 0 0 0 0 0 0 0 0 0 0 0 0 0 0 0 0 0 0 0 0 0 0 0 0 0 
0 0 0 0 0 0 0 0 0 0 0 0 0 0 0 0 0 0 0 0 0 0 0 0 0 0 0 0 0 0 0 0 0 0 0 0 0 0 0 0 0 0 0 0 0 0 0 0 0 0 0 0 0 0 0 0 0 0 0 0 0 0 0 0 0 1 4 14 34 38 27 15 8 4 2 0 0 0 0 0 0 0 0 0 0 0 0 0 0 0 0 0 0 0 0 0 0 1 3 5 4 1 0 0 0 0 0 0 0 0 0 0 
0 0 0 0 0 0 0 0 0 0 0 0 1 3 9 17 22 26 30 21 9 3 1 0 0 0 0 0 0 0 0 0 0 0 0 0 0 0 0 0 0 0 0 0 0 0 0 0 0 0 0 0 0 0 0 0 0 0 0 0 0 0 0 0 1 5 24 75 141 165 169 146 97 47 18 5 1 0 0 0 0 0 0 0 0 0 0 0 0 0 0 0 0 0 0 1 4 16 56 89 53 16 3 0 0 0 0 0 0 0 0 0 
0 0 0 0 0 0 0 0 0 1 3 15 48 99 156 187 199 195 180 147 86 28 8 2 1 0 0 0 0 0 0 0 0 0 0 0 0 1 1 4 12 22 29 35 32 23 15 6 2 0 0 0 0 0 0 0 0 0 0 0 0 0 0 1 3 12 46 104 196 221 225 214 187 120 57 22 5 1 0 0 0 0 0 0 0 0 0 0 0 0 0 0 0 0 0 2 8 43 129 172 115 35 5 0 0 0 0 0 0 0 0 0 
0 0 0 0 0 0 0 0 2 7 32 93 162 181 202 208 202 200 202 193 132 52 16 4 1 0 0 0 0 0 0 0 0 0 0 1 3 7 23 57 96 122 132 143 152 144 122 76 27 7 1 0 0 0 0 0 0 0 0 0 0 0 0 1 6 27 84 170 223 225 222 213 205 179 122 55 15 3 1 0 0 0 0 0 0 0 0 0 0 0 0 0 0 0 0 1 9 63 170 206 139 35 4 0 0 0 0 0 0 0 0 0 
0 0 0 0 0 0 0 1 6 24 85 164 178 146 124 95 95 118 156 193 152 58 14 3 0 0 0 0 0 0 0 0 0 0 1 4 14 39 89 147 173 176 164 161 179 190 184 157 86 30 7 1 0 0 0 0 0 0 0 0 0 0 0 3 19 67 151 218 228 214 198 188 196 200 174 106 37 9 2 0 0 0 0 0 0 0 0 0 0 0 0 0 0 0 0 1 10 76 191 221 139 27 4 1 0 0 0 0 0 0 0 0 
0 0 0 0 0 0 0 3 15 59 143 175 134 77 38 25 30 70 146 207 162 59 14 2 0 0 0 0 0 0 0 0 0 1 5 16 53 107 140 162 150 125 92 85 93 119 142 151 113 53 13 1 0 0 0 0 0 0 0 0 0 0 1 9 53 135 216 237 224 188 155 154 165 190 189 156 96 32 7 1 0 0 0 0 0 0 0 0 0 0 0 0 0 0 0 1 11 87 199 224 120 20 2 1 0 0 0 0 0 0 0 0 
0 0 0 0 0 0 0 3 22 85 158 153 93 39 14 12 22 79 183 215 137 41 8 1 0 0 0 0 0 0 0 0 0 3 14 61 132 157 142 114 70 38 23 20 30 56 91 126 115 63 15 2 0 0 0 0 0 0 0 0 0 0 3 23 103 198 239 235 196 145 105 109 131 173 197 196 174 93 21 2 0 0 0 0 0 0 0 0 0 0 0 0 0 0 0 1 12 86 207 221 96 12 1 0 0 0 0 0 0 0 0 0 
0 0 0 0 0 0 0 4 25 89 149 139 80 26 13 16 49 153 223 191 84 20 3 0 0 0 0 0 0 0 0 0 1 8 45 123 161 142 98 49 22 10 8 10 20 46 92 122 113 59 14 2 0 0 0 0 0 0 0 0 0 1 6 57 160 232 243 211 146 91 64 71 84 126 182 212 222 155 48 5 1 0 0 0 0 0 0 0 0 0 0 0 0 0 0 2 13 96 220 216 84 11 1 0 0 0 0 0 0 0 0 0 
0 0 0 0 0 0 1 5 26 80 128 141 106 57 41 57 137 219 213 124 36 7 1 0 0 0 0 0 0 0 0 0 2 19 78 150 141 88 38 15 8 6 8 16 37 80 123 143 125 66 21 4 1 0 0 0 0 0 0 0 0 1 16 101 214 241 234 162 87 35 26 33 44 67 120 188 230 198 100 16 2 0 0 0 0 0 0 0 0 0 0 0 0 0 0 2 16 112 229 210 80 11 1 0 0 0 0 0 0 0 0 0 
0 0 0 0 0 0 0 4 19 54 104 158 155 115 104 143 218 219 149 55 10 1 0 0 0 0 0 0 0 0 0 0 4 34 106 148 93 49 19 9 8 10 21 45 89 140 181 191 157 90 35 8 2 0 0 0 0 0 0 0 0 3 33 145 233 238 204 108 41 13 10 12 14 25 54 131 222 219 153 40 5 0 0 0 0 0 0 0 0 0 0 0 0 0 0 2 20 128 237 205 75 10 1 0 0 0 0 0 0 0 0 0 
0 0 0 0 0 0 0 2 9 28 75 136 172 174 183 216 225 166 66 15 2 0 0 0 0 0 0 0 0 0 0 0 6 46 122 149 98 60 39 32 39 57 99 137 173 203 209 188 153 114 53 17 5 1 0 0 0 0 0 0 0 7 66 194 235 222 148 51 11 4 3 3 3 7 16 63 189 223 194 81 9 0 0 0 0 0 0 0 0 0 0 0 0 0 1 3 26 150 241 194 60 7 1 0 0 0 0 0 0 0 0 0 
0 0 0 0 0 0 0 1 4 13 49 118 174 207 222 216 174 90 27 5 1 0 0 0 0 0 0 0 0 0 0 0 7 47 120 155 159 145 138 134 140 153 177 207 223 218 181 147 105 89 45 23 10 2 0 0 0 0 0 0 1 19 118 224 230 183 98 25 5 1 1 0 0 2 5 39 156 221 211 110 13 0 0 0 0 0 0 0 0 0 0 0 0 0 1 4 37 180 242 178 46 4 1 0 0 0 0 0 0 0 0 0 
0 0 0 0 0 0 0 0 2 7 46 123 203 227 221 183 113 47 14 3 1 0 0 0 0 0 0 0 0 0 0 0 4 26 88 128 173 182 182 180 168 171 185 212 214 181 128 72 36 31 21 15 8 2 0 0 0 0 0 0 1 36 156 228 221 136 56 10 2 1 0 0 0 1 3 25 134 222 221 129 14 0 0 0 0 0 0 0 0 0 0 0 0 0 1 6 54 203 239 154 30 2 0 0 0 0 0 0 0 0 0 0 
0 0 0 0 0 0 0 0 1 8 57 160 220 221 197 161 106 50 15 3 1 0 0 0 0 0 0 0 0 0 0 0 1 10 32 59 101 117 121 120 112 119 155 186 171 111 59 21 12 13 11 9 4 1 0 0 0 0 0 0 3 52 161 228 212 113 37 6 1 0 0 0 0 0 3 35 165 232 222 118 12 0 0 0 0 0 0 0 0 0 0 0 0 0 1 9 81 218 233 127 20 1 0 0 0 0 0 0 0 0 0 0 
0 0 0 0 0 0 0 0 2 20 103 203 214 187 161 143 122 81 29 7 2 0 0 0 0 0 0 0 0 0 0 0 0 2 6 11 18 25 30 37 48 84 161 179 122 40 12 5 5 7 9 8 3 0 0 0 0 0 0 0 4 50 167 232 217 123 34 6 2 0 0 0 0 2 14 91 208 241 217 88 9 0 0 0 0 0 0 0 0 0 0 0 0 0 2 16 107 227 225 106 14 1 0 0 0 0 0 0 0 0 0 0 
0 0 0 0 0 0 0 0 7 55 169 214 176 121 102 103 120 106 46 12 3 1 0 0 0 0 0 0 0 0 0 0 0 0 1 1 2 3 6 12 38 126 200 154 54 11 4 3 3 7 10 9 3 0 0 0 0 0 0 0 4 45 160 229 223 158 55 11 3 2 1 1 5 20 85 192 239 241 169 41 5 0 0 0 0 0 0 0 0 0 0 0 0 1 4 27 127 232 211 85 11 1 0 0 0 0 0 0 0 0 0 0 
0 0 0 0 0 0 0 1 23 102 190 179 98 61 57 72 112 114 61 17 4 1 0 0 0 0 0 0 0 0 0 0 0 0 0 0 0 1 4 13 69 177 190 79 16 4 3 3 5 13 18 14 4 0 0 0 0 0 0 0 3 30 120 213 229 212 146 67 33 25 27 32 68 119 192 234 239 200 86 16 2 0 0 0 0 0 0 0 0 0 0 0 0 1 5 33 136 230 187 68 10 2 0 0 0 0 0 0 0 0 0 0 
0 0 0 0 0 0 0 4 52 144 192 125 56 44 50 86 136 132 74 22 4 1 0 0 0 0 0 0 0 0 0 0 0 0 0 0 0 1 6 35 129 199 143 34 7 3 2 4 6 18 21 17 4 0 0 0 0 0 0 0 1 12 63 154 225 235 226 194 163 147 144 154 185 222 238 235 200 91 25 5 1 0 0 0 0 0 0 0 0 0 0 0 1 2 7 42 153 227 178 75 13 2 0 0 0 0 0 0 0 0 0 0 
0 0 0 0 0 0 1 10 77 168 193 135 80 75 88 124 151 127 75 22 5 1 0 0 0 0 0 0 0 0 0 0 0 0 0 0 1 3 24 100 195 192 93 15 4 2 2 4 7 18 19 14 5 0 0 0 0 0 0 0 0 5 22 67 162 224 240 241 236 237 239 241 243 244 227 169 75 18 5 1 0 0 0 0 0 0 0 0 0 0 0 0 1 3 11 67 172 219 169 77 17 3 1 0 0 0 0 0 0 0 0 0 
0 0 0 0 0 0 1 10 61 143 202 188 158 160 170 170 159 110 52 12 3 1 0 0 0 0 0 0 0 0 0 0 0 0 0 0 2 13 70 172 211 160 52 8 2 1 1 2 4 13 16 11 5 1 0 0 0 0 0 0 0 1 4 15 47 117 197 231 239 242 242 239 227 187 123 50 12 2 1 0 0 0 0 0 0 0 0 0 0 0 0 0 1 4 17 78 149 189 154 73 17 2 0 0 0 0 0 0 0 0 0 0 
0 0 0 0 0 0 1 5 34 101 176 213 222 225 216 178 124 64 21 5 1 1 0 0 0 0 0 0 0 0 0 0 0 0 0 1 5 32 113 202 199 115 29 5 1 1 1 1 2 7 9 7 4 0 0 0 0 0 0 0 0 0 0 1 4 12 39 95 117 127 114 103 66 39 17 4 1 0 0 0 0 0 0 0 0 0 0 0 0 0 0 0 1 4 17 59 104 130 115 54 12 1 0 0 0 0 0 0 0 0 0 0 
0 0 0 0 0 0 0 2 12 42 96 133 150 145 122 96 47 15 3 1 0 0 0 0 0 0 0 0 0 0 0 0 0 0 0 1 7 38 119 186 148 70 16 3 1 0 0 0 1 3 4 4 2 0 0 0 0 0 0 0 0 0 0 0 0 0 0 1 2 2 2 1 1 1 0 0 0 0 0 0 0 0 0 0 0 0 0 0 0 0 0 0 0 1 3 13 25 38 34 12 2 0 0 0 0 0 0 0 0 0 0 0 
0 0 0 0 0 0 0 0 0 1 2 3 3 4 4 3 1 0 0 0 0 0 0 0 0 0 0 0 0 0 0 0 0 0 0 1 4 25 70 112 77 28 6 1 0 0 0 0 0 1 1 1 0 0 0 0 0 0 0 0 0 0 0 0 0 0 0 0 0 0 0 0 0 0 0 0 0 0 0 0 0 0 0 0 0 0 0 0 0 0 0 0 0 0 0 0 1 2 2 1 0 0 0 0 0 0 0 0 0 0 0 0 
0 0 0 0 0 0 0 0 0 0 0 0 0 0 0 0 0 0 0 0 0 0 0 0 0 0 0 0 0 0 0 0 0 0 0 0 1 6 15 17 8 2 0 0 0 0 0 0 0 0 0 0 0 0 0 0 0 0 0 0 0 0 0 0 0 0 0 0 0 0 0 0 0 0 0 0 0 0 0 0 0 0 0 0 0 0 0 0 0 0 0 0 0 0 0 0 0 0 0 0 0 0 0 0 0 0 0 0 0 0 0 0 
0 0 0 0 0 0 0 0 0 0 0 0 0 0 0 0 0 0 0 0 0 0 0 0 0 0 0 0 0 0 0 0 0 0 0 0 1 1 1 1 0 0 0 0 0 0 0 0 0 0 0 0 0 0 0 0 0 0 0 0 0 0 0 0 0 0 0 0 0 0 0 0 0 0 0 0 0 0 0 0 0 0 0 0 0 0 0 0 0 0 0 0 0 0 0 0 0 0 0 0 0 0 0 0 0 0 0 0 0 0 0 0 
0 0 0 0 0 0 0 0 0 0 0 0 0 0 0 0 0 0 0 0 0 0 0 0 0 0 0 0 0 0 0 0 0 0 0 0 0 0 0 0 0 0 0 0 0 0 0 0 0 0 0 0 0 0 0 0 0 0 0 0 0 0 0 0 0 0 0 0 0 0 0 0 0 0 0 0 0 0 0 0 0 0 0 0 0 0 0 0 0 0 0 0 0 0 0 0 0 0 0 0 0 0 0 0 0 0 0 0 0 0 0 0 
0 0 0 0 0 0 0 0 0 0 0 0 0 0 0 0 0 0 0 0 0 0 0 0 0 0 0 0 0 0 0 0 0 0 0 0 0 0 0 0 0 0 0 0 0 0 0 0 0 0 0 0 0 0 0 0 0 0 0 0 0 0 0 0 0 0 0 0 0 0 0 0 0 0 0 0 0 0 0 0 0 0 0 0 0 0 0 0 0 0 0 0 0 0 0 0 0 0 0 0 0 0 0 0 0 0 0 0 0 0 0 0 
0 0 0 0 0 0 0 0 0 0 0 0 0 0 0 0 0 0 0 0 0 0 0 0 0 0 0 0 0 0 0 0 0 0 0 0 0 0 0 0 0 0 0 0 0 0 0 0 0 0 0 0 0 0 0 0 0 0 0 0 0 0 0 0 0 0 0 0 0 0 0 0 0 0 0 0 0 0 0 0 0 0 0 0 0 0 0 0 0 0 0 0 0 0 0 0 0 0 0 0 0 0 0 0 0 0 0 0 0 0 0 0 
0 0 0 0 0 0 0 0 0 0 0 0 0 0 0 0 0 0 0 0 0 0 0 0 0 0 0 0 0 0 0 0 0 0 0 0 0 0 0 0 0 0 0 0 0 0 0 0 0 0 0 0 0 0 0 0 0 0 0 0 0 0 0 0 0 0 0 0 0 0 1 3 2 2 1 0 0 0 0 0 0 0 0 0 0 0 0 0 0 0 0 0 0 0 0 0 0 0 0 0 0 0 0 0 0 0 0 0 0 0 0 0 
0 0 0 0 0 0 0 0 0 0 0 0 0 0 0 0 0 0 1 2 3 4 4 2 1 0 0 0 0 0 0 0 0 0 0 0 0 0 0 0 0 0 0 0 0 0 0 0 0 0 0 0 0 0 0 0 0 0 0 0 0 0 0 0 0 0 1 2 5 13 29 38 27 21 15 6 3 1 0 0 0 0 0 0 0 0 0 0 0 0 0 0 0 0 0 0 0 0 0 0 0 0 0 0 0 0 0 0 0 0 0 0 
0 0 0 0 0 0 1 1 1 2 2 2 2 1 1 2 2 5 12 29 45 43 27 14 4 0 0 0 0 0 0 0 0 0 0 0 0 0 0 0 0 0 0 0 0 0 0 1 1 0 0 0 0 0 0 0 0 0 0 0 0 0 0 0 1 3 7 18 38 68 96 103 88 75 53 27 12 3 1 0 0 0 0 0 0 0 0 0 0 0 0 0 0 0 0 0 0 2 5 9 18 26 26 10 2 1 0 0 0 0 0 0 
0 0 0 0 0 1 2 3 5 9 15 16 14 10 7 6 9 18 47 89 114 104 69 31 7 1 0 0 0 0 0 0 0 0 0 1 2 5 11 19 26 28 24 26 31 37 51 52 28 13 5 1 0 0 0 0 0 0 0 0 0 0 0 2 7 15 33 63 87 112 129 149 151 127 87 45 19 6 3 1 1 0 0 0 0 0 0 0 0 0 0 0 0 0 0 3 16 42 75 114 144 148 131 80 29 9 2 0 0 0 0 0 
0 0 0 0 1 2 4 7 16 30 47 54 45 28 16 14 19 40 87 146 174 137 79 28 5 0 0 0 0 0 0 0 0 1 3 11 26 44 67 100 127 130 135 141 159 166 186 164 98 46 16 4 1 0 0 0 0 0 0 0 0 0 2 7 22 44 71 96 107 112 116 134 141 140 119 66 24 8 4 2 1 0 0 0 0 0 0 0 0 0 0 0 0 1 7 36 90 149 183 197 196 193 181 144 70 25 6 1 0 0 0 0 
0 0 0 0 1 3 9 21 43 68 92 93 76 45 23 17 24 58 125 204 194 118 55 18 3 0 0 0 0 0 0 0 1 4 14 42 83 126 166 190 192 186 174 159 165 192 217 184 107 40 10 2 0 0 0 0 0 0 0 0 0 1 4 15 41 70 94 111 110 100 87 88 98 121 124 84 37 15 8 4 2 1 0 0 0 0 0 0 0 0 0 0 1 8 45 121 177 197 173 143 124 134 155 148 87 37 9 1 0 0 0 0 
0 0 0 0 1 6 16 40 74 112 129 112 75 33 13 11 21 69 169 223 176 81 27 9 2 0 0 0 0 0 0 0 2 8 28 76 138 179 180 162 137 116 89 69 91 156 205 161 72 15 3 1 0 0 0 0 0 0 0 0 0 1 5 16 43 73 99 111 105 85 67 62 74 108 126 102 47 21 11 8 6 3 1 1 0 0 0 0 0 0 0 1 8 47 132 202 198 147 78 45 50 76 119 143 93 41 11 2 0 0 0 0 
0 0 0 0 2 10 34 76 126 150 139 103 49 17 9 12 34 115 213 222 139 54 17 6 1 0 0 0 0 0 0 0 3 11 40 99 163 150 120 69 37 24 19 18 43 151 203 140 38 6 1 0 0 0 0 0 0 0 0 0 0 1 4 13 37 67 96 104 103 76 58 63 91 135 138 102 51 24 16 13 12 8 3 2 0 0 0 0 0 0 1 6 43 130 207 196 114 52 25 20 36 77 134 158 101 42 11 2 0 0 0 0 
0 0 0 0 5 26 67 133 170 168 128 74 34 15 12 22 69 168 229 199 107 38 13 5 1 0 0 0 0 0 0 1 3 13 50 123 144 89 42 13 7 5 5 8 41 173 204 102 17 2 0 0 0 0 0 0 0 0 0 0 0 1 5 13 34 65 94 104 101 80 71 92 136 164 142 87 42 24 20 20 18 12 6 4 0 0 0 0 0 0 2 20 107 201 197 108 37 16 10 17 44 104 180 171 100 38 10 2 0 0 0 0 
0 0 0 1 14 59 120 184 193 175 119 68 48 37 47 84 150 217 231 172 85 29 11 5 2 0 0 0 0 0 0 1 4 17 59 113 101 46 15 5 3 3 3 11 81 211 202 66 9 1 0 0 0 0 0 0 0 0 0 0 0 1 7 17 40 77 112 139 125 102 104 143 174 158 111 63 35 28 31 32 28 18 7 4 0 0 0 0 0 1 10 64 166 198 123 47 15 8 11 35 82 164 209 168 82 30 10 2 1 0 0 0 
0 0 0 3 33 103 166 210 206 183 138 108 105 110 148 191 222 236 230 167 90 42 23 14 4 0 0 0 0 0 0 1 3 17 58 101 83 39 15 6 4 3 5 34 155 236 183 43 7 2 0 0 0 0 0 0 0 0 0 0 0 1 7 19 48 90 137 166 156 144 155 184 182 141 94 70 60 57 56 51 35 15 4 2 0 0 0 0 0 2 18 94 191 163 79 28 17 19 42 93 155 210 212 148 68 28 10 3 1 0 0 0 
0 0 0 8 55 123 195 219 214 207 200 197 195 204 219 232 238 235 221 173 128 94 63 39 13 1 0 0 0 0 0 1 4 21 67 108 105 78 44 19 13 10 23 97 224 239 145 36 8 3 1 0 0 0 0 0 0 0 0 0 0 1 5 16 47 92 145 184 197 210 215 200 170 136 121 122 106 89 76 66 42 13 2 1 0 0 0 0 0 4 32 137 201 127 64 35 39 61 109 160 211 223 198 121 62 27 10 3 1 0 0 0 
0 0 0 7 49 126 191 208 210 211 220 220 221 224 226 230 227 217 203 179 154 127 84 49 14 1 0 0 0 0 0 1 4 24 64 107 115 111 83 47 36 27 50 152 242 229 113 25 6 3 1 0 0 0 0 0 0 0 0 0 0 0 3 11 39 85 152 197 218 225 210 153 121 104 101 111 105 98 86 72 40 10 1 1 0 0 0 0 1 5 45 149 194 133 90 75 86 121 155 199 219 219 173 99 47 23 9 3 1 0 0 0 
0 0 0 5 31 87 131 141 155 162 166 164 171 177 194 198 192 173 156 155 139 115 72 36 7 0 0 0 0 0 0 1 4 16 34 61 70 74 61 35 24 26 71 187 243 198 74 13 4 2 1 0 0 0 0 0 0 0 0 0 0 0 1 7 36 95 159 191 206 201 160 84 54 38 34 49 68 75 65 53 29 7 1 0 0 0 0 0 1 8 48 128 186 174 159 148 150 166 174 189 198 184 132 79 36 21 8 2 1 0 0 0 
0 0 0 1 8 26 41 42 49 50 49 57 69 99 150 159 139 106 91 105 83 69 43 19 3 0 0 0 0 0 0 0 1 5 12 19 23 24 18 11 10 23 86 208 236 152 43 7 2 1 0 0 0 0 0 0 0 0 0 0 0 0 1 7 43 114 178 193 191 162 102 37 13 7 10 19 31 38 37 34 19 4 0 0 0 0 0 0 1 10 43 99 151 169 163 159 155 155 158 164 157 133 91 56 31 20 8 2 1 0 0 0 
0 0 0 0 1 4 6 6 7 8 10 16 33 87 133 120 72 46 38 42 36 34 20 7 1 0 0 0 0 0 0 0 0 1 3 4 5 4 2 2 4 23 123 229 220 105 21 4 1 0 0 0 0 0 0 0 0 0 0 0 0 0 1 8 53 130 197 200 182 135 70 16 4 2 4 9 14 19 22 21 14 4 0 0 0 0 0 0 1 7 24 60 90 105 102 97 98 113 138 142 120 86 51 35 23 15 6 2 1 0 0 0 
0 0 0 0 0 1 1 1 1 2 4 11 32 81 107 64 28 18 17 20 21 26 16 5 1 0 0 0 0 0 0 0 0 0 1 1 1 0 0 1 3 29 162 232 188 64 11 2 1 0 0 0 0 0 0 0 0 0 0 0 0 0 1 8 56 129 199 199 171 114 53 11 4 2 4 9 13 16 18 18 11 3 0 0 0 0 0 0 0 2 7 18 30 37 41 49 63 91 122 112 72 43 31 26 19 13 6 2 0 0 0 0 
0 0 0 0 0 0 0 0 1 2 5 17 50 95 94 37 15 10 9 14 21 29 18 5 1 0 0 0 0 0 0 0 0 0 0 0 0 0 0 0 2 41 188 228 152 40 7 1 0 0 0 0 0 0 0 0 0 0 0 0 0 0 1 7 54 128 200 194 163 106 56 17 7 4 7 12 12 14 16 15 8 2 0 0 0 0 0 0 0 1 2 4 7 10 15 27 45 78 109 85 44 27 20 19 14 11 5 1 0 0 0 0 
0 0 0 0 0 0 0 1 2 5 15 48 93 114 85 28 11 9 10 18 28 34 20 7 1 0 0 0 0 0 0 0 0 0 0 0 0 0 0 0 4 66 201 218 111 21 4 1 0 0 0 0 0 0 0 0 0 0 0 0 0 0 1 7 48 123 191 200 180 143 92 35 15 10 10 14 10 11 11 8 6 1 0 0 0 0 0 0 0 0 0 1 3 6 15 32 50 76 90 60 30 19 16 16 13 10 4 2 1 0 0 0 
0 0 0 0 0 0 0 1 5 13 35 76 118 112 68 23 11 8 9 16 25 30 19 7 2 0 0 0 0 0 0 0 0 0 0 0 0 0 0 1 12 107 214 198 81 13 3 1 0 0 0 0 0 0 0 0 0 0 0 0 0 0 1 5 35 93 141 179 181 163 105 42 21 14 13 13 10 11 9 6 4 1 0 0 0 0 0 0 0 0 0 1 3 8 24 51 75 96 87 51 27 17 14 15 13 10 4 2 1 0 0 0 
0 0 0 0 0 0 0 1 5 16 39 70 95 82 50 21 11 6 5 7 11 18 12 6 3 0 0 0 0 0 0 0 0 0 0 0 0 0 1 4 36 148 217 177 64 12 3 1 1 0 0 0 0 0 0 0 0 0 0 0 0 0 0 4 23 51 69 100 121 117 74 36 16 9 9 9 8 8 7 5 3 1 0 0 0 0 0 0 0 0 0 1 4 13 35 67 86 99 86 51 27 16 12 13 11 9 4 2 1 0 0 0 
0 0 0 0 0 0 0 1 2 8 19 36 49 39 23 11 5 2 2 2 3 5 3 2 1 0 0 0 0 0 0 0 0 0 0 0 0 0 2 10 63 169 212 154 53 10 3 1 0 0 0 0 0 0 0 0 0 0 0 0 0 0 0 1 6 14 20 34 43 38 22 10 4 2 2 2 2 3 2 1 1 0 0 0 0 0 0 0 0 0 0 1 4 12 31 58 69 76 58 32 19 10 8 8 7 5 3 1 0 0 0 0 
0 0 0 0 0 0 0 0 1 2 4 6 7 6 3 2 1 0 0 0 0 1 1 0 0 0 0 0 0 0 0 0 0 0 0 0 0 1 3 16 74 163 172 116 35 7 2 1 0 0 0 0 0 0 0 0 0 0 0 0 0 0 0 0 0 0 1 2 1 1 1 0 0 0 0 0 0 0 0 0 0 0 0 0 0 0 0 0 0 0 0 1 3 7 16 27 32 34 22 11 6 4 3 3 2 2 1 0 0 0 0 0 
0 0 0 0 0 0 0 0 0 0 0 0 0 0 0 0 0 0 0 0 0 0 0 0 0 0 0 0 0 0 0 0 0 0 0 0 0 0 3 12 39 84 77 43 9 2 0 0 0 0 0 0 0 0 0 0 0 0 0 0 0 0 0 0 0 0 0 0 0 0 0 0 0 0 0 0 0 0 0 0 0 0 0 0 0 0 0 0 0 0 0 1 1 2 3 4 4 5 3 2 1 1 1 0 0 0 0 0 0 0 0 0 
0 0 0 0 0 0 0 0 0 0 0 0 0 0 0 0 0 0 0 0 0 0 0 0 0 0 0 0 0 0 0 0 0 0 0 0 0 0 1 2 4 8 7 3 1 0 0 0 0 0 0 0 0 0 0 0 0 0 0 0 0 0 0 0 0 0 0 0 0 0 0 0 0 0 0 0 0 0 0 0 0 0 0 0 0 0 0 0 0 0 0 0 0 0 0 0 0 1 0 0 0 0 0 0 0 0 0 0 0 0 0 0 
