P2
112 112
255
0 0 0 0 0 0 0 0 0 0 0 0 0 0 0 0 0 0 0 0 0 0 0 0 0 0 0 0 0 0 0 0 0 0 0 0 0 0 0 0 0 0 0 0 0 0 0 0 0 0 0 0 0 0 0 0 0 0 0 0 0 0 0 0 0 0 0 0 0 0 0 0 0 0 0 0 0 0 0 0 0 0 0 0 0 0 0 0 0 0 0 0 0 0 0 0 0 0 0 0 0 0 0 0 0 0 0 0 0 0 0 0 
0 0 0 0 0 0 0 0 0 0 0 0 0 0 0 0 0 0 0 0 0 0 0 0 0 0 0 0 0 0 0 0 0 0 0 0 0 0 0 0 0 0 0 0 0 0 0 0 0 0 0 0 0 0 0 0 0 0 0 0 0 0 0 0 0 0 0 0 0 0 0 0 0 0 0 0 0 0 0 0 0 0 0 0 0 0 0 0 0 0 0 0 0 0 0 0 0 0 0 0 0 0 0 0 0 0 0 0 0 0 0 0 
0 0 0 0 0 0 0 0 0 0 0 0 0 0 0 0 0 0 0 0 0 0 0 0 0 0 0 0 0 0 0 0 0 0 0 0 0 0 0 0 0 0 0 0 0 0 0 0 0 0 0 0 0 0 0 0 0 0 0 0 0 0 0 0 0 0 0 0 0 0 0 0 0 0 0 0 1 0 0 0 0 0 0 0 0 0 0 0 0 0 0 0 0 0 0 0 0 0 0 0 0 0 0 0 0 0 0 0 0 0 0 0 
0 0 0 0 0 0 0 0 0 0 0 1 1 1 1 1 0 0 0 0 0 0 0 0 0 0 0 0 0 0 0 0 0 0 0 0 0 0 0 0 0 0 0 0 0 0 0 0 0 0 0 0 0 0 0 0 0 0 0 0 0 0 0 0 0 0 0 0 0 0 2 4 10 15 21 27 23 13 5 1 0 0 0 0 0 0 0 0 0 0 0 0 0 0 0 0 0 0 0 0 0 0 0 0 0 0 0 0 0 0 0 0 
0 0 0 0 0 0 0 0 0 1 4 12 23 30 35 28 13 5 1 0 0 0 0 0 0 0 0 0 0 0 0 0 0 0 0 0 0 0 0 0 1 2 6 11 13 12 7 2 1 1 0 0 0 0 0 0 0 0 0 0 0 0 0 0 0 0 0 1 3 10 26 61 98 128 157 155 106 53 20 6 1 0 0 0 0 0 0 0 0 0 0 0 0 0 0 0 1 1 4 7 9 9 9 8 7 4 2 1 0 0 0 0 
0 0 0 0 0 0 0 0 1 7 28 73 123 146 136 104 62 27 9 3 1 0 0 0 0 0 0 0 0 0 0 0 0 0 0 0 0 0 1 8 26 57 95 123 120 98 61 33 15 6 3 1 1 0 0 0 0 0 0 0 0 0 0 0 0 1 2 7 19 42 78 127 164 197 217 205 135 64 27 10 2 0 0 0 0 0 0 0 0 0 0 0 0 0 1 3 10 37 101 153 174 172 161 136 111 78 42 13 3 0 0 0 
0 0 0 0 0 0 0 0 4 20 77 149 191 193 173 152 111 48 16 6 2 1 0 0 0 0 0 0 0 0 0 0 0 0 0 0 0 2 12 49 111 144 173 179 159 138 110 72 35 13 7 3 1 0 0 0 0 0 0 0 0 0 0 0 1 3 8 17 37 68 112 149 162 181 213 201 137 66 28 10 2 0 0 0 0 0 0 0 0 0 0 0 0 1 3 12 43 107 191 212 215 213 212 205 185 152 101 44 17 3 0 0 
0 0 0 0 0 0 0 1 9 45 117 175 175 151 137 137 112 62 23 8 3 2 1 1 1 0 0 0 0 0 0 0 0 0 0 0 1 10 51 127 170 163 150 130 124 126 117 93 45 17 8 3 1 0 0 0 0 0 0 0 0 0 0 1 3 7 13 22 43 73 107 128 117 131 188 199 137 55 17 5 1 0 0 0 0 0 0 0 0 0 0 0 0 2 7 22 70 154 206 196 182 173 175 188 187 172 116 46 17 3 0 0 
0 0 0 0 0 0 0 3 19 76 144 166 128 103 90 97 97 77 50 26 13 7 5 3 2 1 0 0 0 0 0 0 0 0 0 1 6 36 113 190 170 115 77 61 72 96 113 119 71 32 13 5 2 1 0 0 0 0 0 0 0 0 1 1 4 8 12 19 41 67 86 80 69 125 193 200 114 36 9 3 1 0 0 0 0 0 0 0 0 0 0 0 0 3 10 32 94 157 166 124 95 91 112 154 173 163 106 33 11 2 0 0 
0 0 0 0 0 0 0 4 29 96 159 158 110 76 58 70 90 92 73 49 24 13 7 3 2 1 0 0 0 0 0 0 0 0 0 1 15 73 162 194 130 70 40 34 52 84 121 134 88 40 15 4 2 1 0 0 0 0 0 0 0 0 1 1 2 5 9 16 38 60 64 53 76 154 208 177 74 17 4 1 0 0 0 0 0 0 0 0 0 0 0 0 0 2 9 37 107 147 123 68 45 64 111 156 175 141 61 11 3 0 0 0 
0 0 0 0 0 0 0 4 29 87 149 157 115 71 57 77 102 104 79 56 31 17 8 3 2 1 0 0 0 0 0 0 0 0 0 3 25 91 174 176 102 45 24 27 56 113 140 128 76 32 11 3 2 1 1 0 0 0 0 0 0 0 1 1 1 3 6 17 50 75 82 83 140 193 191 110 31 6 1 0 0 0 0 0 0 0 0 0 0 0 0 0 0 1 9 40 119 147 119 73 73 123 162 175 160 98 21 2 1 0 0 0 
0 0 0 0 0 0 0 3 19 62 117 152 142 113 96 109 130 109 79 52 29 14 6 2 2 1 0 0 0 0 0 0 0 0 0 4 24 85 153 161 102 53 35 45 87 140 142 100 49 18 5 1 1 1 0 0 0 0 0 0 0 0 0 0 1 2 6 23 73 120 142 160 184 180 117 37 8 1 0 0 0 0 0 0 0 0 0 0 0 0 0 0 0 1 8 41 115 152 142 130 151 182 184 160 116 41 5 1 0 0 0 0 
0 0 0 0 0 0 0 1 9 33 74 122 155 153 140 147 151 107 68 39 19 7 2 1 1 0 0 0 0 0 0 0 0 0 0 3 15 57 106 154 136 97 73 94 136 151 113 61 23 5 1 0 0 0 0 0 0 0 0 0 0 0 0 0 1 2 8 36 102 165 193 202 189 129 49 11 2 0 0 0 0 0 0 0 0 0 0 0 0 0 0 0 0 1 7 41 123 192 195 195 191 173 134 87 31 7 1 0 0 0 0 0 
0 0 0 0 0 0 0 1 4 16 42 80 128 169 181 184 157 97 52 23 7 2 0 0 0 0 0 0 0 0 0 0 0 0 0 1 7 27 66 117 136 140 141 161 165 122 61 21 5 1 0 0 0 0 0 0 0 0 0 0 0 0 0 0 1 5 20 69 146 197 212 206 165 77 18 3 0 0 0 0 0 0 0 0 0 0 0 0 0 0 0 0 0 1 8 49 147 217 227 218 184 109 44 13 3 1 0 0 0 0 0 0 
0 0 0 0 0 0 0 0 2 6 20 51 111 166 195 187 148 90 45 15 3 0 0 0 0 0 0 0 0 0 0 0 0 0 0 0 2 11 33 75 134 178 192 187 151 81 29 7 1 0 0 0 0 0 0 0 0 0 0 0 0 0 1 2 6 20 52 121 195 214 208 169 106 41 10 2 0 0 0 0 0 0 0 0 0 0 0 0 0 0 0 0 0 1 9 62 164 227 239 220 148 44 9 1 0 0 0 0 0 0 0 0 
0 0 0 0 0 0 0 0 1 3 11 38 104 177 198 175 135 87 40 11 1 0 0 0 0 0 0 0 0 0 0 0 0 0 0 0 1 4 20 63 139 200 205 177 112 46 13 2 0 0 0 0 0 0 0 0 0 0 0 0 0 0 2 8 30 70 114 164 206 208 195 149 89 38 15 5 1 0 0 0 0 0 0 0 0 0 0 0 0 0 0 0 0 2 15 86 177 233 241 206 89 13 2 0 0 0 0 0 0 0 0 0 
0 0 0 0 0 0 0 0 1 2 10 44 113 172 166 153 131 94 42 10 1 0 0 0 0 0 0 0 0 0 0 0 0 0 0 0 1 3 17 70 136 186 182 149 103 44 11 1 0 0 0 0 0 0 0 0 0 0 0 0 0 1 7 31 93 145 176 186 188 181 184 174 141 86 39 14 4 1 0 0 0 0 0 0 0 0 0 0 0 0 0 0 1 5 30 99 176 227 239 200 71 8 1 0 0 0 0 0 0 0 0 0 
0 0 0 0 0 0 0 0 1 3 18 69 127 143 121 119 122 103 53 13 1 0 0 0 0 0 0 0 0 0 0 0 0 0 0 0 1 4 26 87 139 154 144 138 117 61 15 2 0 0 0 0 0 0 0 0 0 0 0 0 0 2 20 79 166 201 198 178 172 165 182 187 186 150 89 27 7 1 0 0 0 0 0 0 0 0 0 0 0 0 0 1 5 25 64 112 157 203 233 206 71 6 1 0 0 0 0 0 0 0 0 0 
0 0 0 0 0 0 0 0 2 7 35 101 136 121 85 87 123 120 69 17 1 0 0 0 0 0 0 0 0 0 0 0 0 0 0 0 2 8 43 113 134 119 107 125 134 84 20 2 0 0 0 0 0 0 0 0 0 0 0 0 0 5 39 130 204 205 181 158 155 151 157 160 170 150 98 27 5 0 0 0 0 0 0 0 0 0 0 0 0 0 0 4 30 75 105 116 124 178 227 206 73 7 1 0 0 0 0 0 0 0 0 0 
0 0 0 0 0 0 0 0 2 11 53 115 126 96 69 83 138 140 83 21 2 0 0 0 0 0 0 0 0 0 0 0 0 0 0 0 3 14 61 126 109 79 79 113 152 95 25 2 0 0 0 0 0 0 0 0 0 0 0 0 1 8 58 155 209 202 174 141 121 123 124 129 138 121 69 13 2 0 0 0 0 0 0 0 0 0 0 0 0 0 2 20 91 126 96 72 75 153 224 213 92 7 0 0 0 0 0 0 0 0 0 0 
0 0 0 0 0 0 0 0 2 13 61 121 135 108 88 100 150 142 82 22 2 0 0 0 0 0 0 0 0 0 0 0 0 0 0 1 4 21 78 120 86 62 67 117 162 99 30 3 0 0 0 0 0 0 0 0 0 0 0 0 1 12 63 136 193 194 166 140 119 119 116 121 119 93 39 7 2 0 0 0 0 0 0 0 0 0 0 0 0 1 8 57 137 127 65 44 57 163 230 215 93 6 0 0 0 0 0 0 0 0 0 0 
0 0 0 0 0 0 0 0 2 14 61 122 149 130 111 128 166 134 75 19 2 0 0 0 0 0 0 0 0 0 0 0 0 0 0 1 6 29 77 110 77 62 85 147 171 98 30 3 0 0 0 0 0 0 0 0 0 0 0 0 2 17 57 109 156 175 167 158 151 151 138 128 106 77 32 10 4 2 2 1 0 0 0 0 0 0 0 0 0 3 19 84 140 118 72 65 95 200 235 186 57 3 0 0 0 0 0 0 0 0 0 0 
0 0 0 0 0 0 0 0 2 10 43 99 140 165 167 175 176 119 63 15 2 0 0 0 0 0 0 0 0 0 0 0 0 0 0 1 8 27 69 110 109 118 155 185 172 90 27 2 0 0 0 0 0 0 0 0 0 0 0 0 1 12 38 71 99 124 142 142 127 123 121 111 89 62 30 15 11 8 8 3 1 0 0 0 0 0 0 0 0 3 26 89 143 163 168 185 215 240 230 139 35 2 0 0 0 0 0 0 0 0 0 0 
0 0 0 0 0 0 0 0 1 5 25 67 120 162 193 194 161 96 41 10 1 0 0 0 0 0 0 0 0 0 0 0 0 0 0 1 7 24 81 140 176 194 207 197 144 71 19 2 0 0 0 0 0 0 0 0 0 0 0 0 0 4 12 22 31 39 50 50 43 44 49 47 36 25 14 10 10 9 6 2 0 0 0 0 0 0 0 0 0 3 24 82 154 202 231 241 242 233 165 77 11 1 0 0 0 0 0 0 0 0 0 0 
0 0 0 0 0 0 0 0 0 2 11 30 60 90 126 130 88 42 14 3 0 0 0 0 0 0 0 0 0 0 0 0 0 0 0 0 3 15 65 110 149 173 174 135 78 28 6 1 0 0 0 0 0 0 0 0 0 0 0 0 0 0 1 1 2 2 2 2 3 3 3 3 3 2 2 2 2 2 1 0 0 0 0 0 0 0 0 0 0 0 6 31 88 140 190 190 171 96 36 11 1 0 0 0 0 0 0 0 0 0 0 0 
0 0 0 0 0 0 0 0 0 0 1 3 5 9 12 13 9 4 2 0 0 0 0 0 0 0 0 0 0 0 0 0 0 0 0 0 0 2 9 17 25 36 34 25 14 4 1 0 0 0 0 0 0 0 0 0 0 0 0 0 0 0 0 0 0 0 0 0 0 0 0 0 0 0 0 0 0 0 0 0 0 0 0 0 0 0 0 0 0 0 0 1 4 9 14 12 6 2 1 0 0 0 0 0 0 0 0 0 0 0 0 0 
0 0 0 0 0 0 0 0 0 0 0 0 0 0 0 0 0 0 0 0 0 0 0 0 0 0 0 0 0 0 0 0 0 0 0 0 0 0 0 1 1 2 2 2 1 0 0 0 0 0 0 0 0 0 0 0 0 0 0 0 0 0 0 0 0 0 0 0 0 0 0 0 0 0 0 0 0 0 0 0 0 0 0 0 0 0 0 0 0 0 0 0 0 0 0 0 0 0 0 0 0 0 0 0 0 0 0 0 0 0 0 0 
0 0 0 0 0 0 0 0 0 0 0 0 0 0 0 0 0 0 0 0 0 0 0 0 0 0 0 0 0 0 0 0 0 0 0 0 0 0 0 0 0 0 0 0 0 0 0 0 0 0 0 0 0 0 0 0 0 0 0 0 0 0 0 0 0 0 0 0 0 0 0 0 0 0 0 0 0 0 0 0 0 0 0 0 0 0 0 0 0 0 0 0 0 0 0 0 0 0 0 0 0 0 0 0 0 0 0 0 0 0 0 0 
0 0 0 0 0 0 0 0 0 0 0 0 0 0 0 0 0 0 0 0 0 0 0 0 0 0 0 0 0 0 0 0 0 0 0 0 0 0 0 0 0 0 0 0 0 0 0 0 0 0 0 0 0 0 0 0 0 0 0 0 0 0 0 0 0 0 0 0 0 0 0 0 0 0 0 0 0 0 0 0 0 0 0 0 0 0 0 0 0 0 0 0 0 0 0 0 0 0 0 0 0 0 0 0 0 0 0 0 0 0 0 0 
0 0 0 0 0 0 0 0 0 0 0 0 0 0 0 0 0 0 0 0 0 0 0 0 0 0 0 0 0 0 0 0 0 0 0 0 0 0 0 0 0 0 0 0 0 0 0 0 0 0 0 0 0 0 0 0 0 0 0 0 0 0 0 0 0 0 0 0 0 0 0 0 0 0 0 0 0 0 0 0 0 0 0 0 0 0 0 0 0 0 0 0 0 0 0 0 0 0 0 0 0 0 0 0 0 0 0 0 0 0 0 0 
0 0 0 0 0 0 0 0 0 0 0 0 0 0 0 0 0 0 0 0 0 0 0 0 0 0 0 0 0 0 0 0 0 0 0 0 0 0 0 0 0 0 0 0 0 0 0 0 0 0 0 0 0 0 0 0 0 0 0 0 0 0 0 0 0 0 0 0 0 0 0 0 0 0 0 0 0 0 0 0 0 0 0 0 0 0 0 0 0 0 0 0 0 0 0 0 0 0 0 0 0 0 0 0 0 0 0 0 0 0 0 0 
0 0 0 0 0 0 0 0 0 0 0 0 0 0 0 0 0 0 0 0 0 0 0 0 0 0 0 0 0 0 0 0 0 0 0 0 0 0 0 0 0 0 0 0 0 1 1 1 1 1 1 0 0 0 0 0 0 0 0 0 0 0 0 0 0 0 0 0 0 0 0 1 1 1 1 0 0 0 0 0 0 0 0 0 0 0 0 0 0 0 0 0 0 0 0 0 0 0 1 2 3 4 3 2 1 1 0 0 0 0 0 0 
0 0 0 0 0 0 0 0 0 0 0 1 1 1 1 1 0 0 0 0 0 0 0 0 0 0 0 0 0 0 0 0 0 0 0 0 0 0 0 1 5 13 25 35 45 54 61 56 40 26 16 7 2 0 0 0 0 0 0 0 0 0 0 0 0 0 0 0 2 15 51 91 81 71 66 41 14 3 1 0 0 0 0 0 0 0 0 0 0 0 0 0 0 0 0 0 2 7 23 54 68 63 46 33 21 12 7 2 1 0 0 0 
0 0 0 0 0 0 0 1 4 10 15 24 40 55 59 45 28 16 7 2 1 0 0 0 0 0 0 0 0 0 0 0 0 0 0 0 0 1 4 14 45 93 150 178 193 194 184 165 128 83 47 24 9 1 0 0 0 0 0 0 0 0 0 0 0 0 1 7 45 114 189 212 200 187 172 132 57 13 3 1 0 0 0 0 0 0 0 0 0 0 0 0 0 0 1 4 16 52 99 140 143 121 98 76 53 32 21 11 4 1 0 0 
0 0 0 0 0 1 4 14 40 72 108 144 166 178 174 163 132 91 49 21 10 4 3 2 1 0 0 0 0 0 0 0 0 0 0 0 1 4 14 44 105 159 196 204 196 184 172 167 152 127 81 43 20 4 0 0 0 0 0 0 0 0 0 0 0 1 10 63 154 194 202 187 168 167 180 173 89 19 5 1 0 0 0 0 0 0 0 0 0 0 0 0 0 0 3 17 63 120 174 182 154 134 118 100 72 46 30 19 12 4 1 0 
0 0 0 0 1 10 35 67 117 161 184 199 201 193 193 199 200 174 129 81 43 20 10 6 2 1 0 0 0 0 0 0 0 0 0 1 3 11 34 88 155 173 163 133 99 80 75 95 115 133 101 50 20 5 0 0 0 0 0 0 0 0 0 0 0 5 49 158 192 157 98 53 56 87 138 177 101 21 4 1 0 0 0 0 0 0 0 0 0 0 0 0 0 2 13 54 112 182 188 149 115 99 93 87 69 42 25 18 14 7 2 1 
0 0 0 1 9 48 98 135 178 183 166 150 131 113 112 134 165 172 170 150 107 60 34 21 9 3 1 0 0 0 0 0 0 0 0 1 5 21 69 140 172 143 96 45 24 22 30 59 113 150 114 53 20 4 0 0 0 0 0 0 0 0 0 0 1 16 123 203 168 83 30 12 13 34 104 174 105 25 4 1 0 0 0 0 0 0 0 0 0 0 0 0 1 6 37 101 165 186 139 88 67 69 79 87 80 53 30 20 16 10 4 2 
0 0 0 2 19 77 131 174 198 177 133 86 60 52 55 68 100 129 163 167 138 88 56 36 19 7 2 1 0 0 0 0 0 0 0 1 6 25 91 159 153 85 34 12 10 13 28 74 138 165 115 43 14 2 0 0 0 0 0 0 0 0 0 0 2 32 159 199 126 39 9 4 6 31 119 181 110 27 4 0 0 0 0 0 0 0 0 0 0 0 0 0 2 12 66 145 182 147 86 46 41 54 74 92 98 67 34 17 14 10 4 2 
0 0 0 3 25 84 135 179 187 144 89 47 30 26 36 49 74 110 152 159 150 104 75 52 33 14 3 1 0 0 0 0 0 0 0 1 6 26 85 139 138 67 24 11 13 22 58 119 173 163 93 28 7 2 0 0 0 0 0 0 0 0 0 0 3 39 140 175 111 29 8 5 15 90 180 184 87 18 3 0 0 0 0 0 0 0 0 0 0 0 0 0 2 20 83 164 169 100 59 33 41 57 82 104 109 70 32 17 12 9 3 1 
0 0 0 2 21 73 122 173 182 132 84 42 28 26 31 49 77 118 164 167 154 115 88 56 32 12 2 1 0 0 0 0 0 0 0 1 5 22 67 123 134 81 44 37 50 88 136 166 167 127 51 13 4 1 0 0 0 0 0 0 0 0 0 0 3 33 105 163 140 61 28 29 77 181 199 147 47 7 1 0 0 0 0 0 0 0 0 0 0 0 0 1 5 29 92 165 133 67 41 38 67 89 114 125 116 72 31 16 11 6 2 1 
0 0 0 1 10 44 98 159 193 166 134 83 54 52 58 88 130 172 186 166 132 100 68 43 21 6 1 0 0 0 0 0 0 0 0 1 4 16 55 116 151 122 93 106 147 175 181 162 121 66 19 5 1 0 0 0 0 0 0 0 0 0 0 0 3 19 62 128 157 122 92 103 166 203 165 84 18 2 0 0 0 0 0 0 0 0 0 0 0 0 0 1 9 40 97 162 124 66 48 63 109 126 136 119 94 57 26 13 7 3 1 0 
0 0 0 0 3 18 57 109 154 172 170 150 124 119 127 163 187 193 180 155 122 93 52 28 10 2 0 0 0 0 0 0 0 0 0 1 4 14 48 112 168 167 156 186 203 188 157 106 46 17 5 2 0 0 0 0 0 0 0 0 0 0 0 0 2 9 30 80 137 165 168 191 212 186 104 31 5 0 0 0 0 0 0 0 0 0 0 0 0 0 1 3 16 48 99 149 124 90 86 108 142 136 120 88 54 32 16 7 3 1 0 0 
0 0 0 0 0 4 18 46 89 125 157 177 188 202 207 199 179 161 147 139 108 82 43 21 7 1 0 0 0 0 0 0 0 0 0 1 5 17 54 122 185 203 201 207 182 127 67 24 8 3 1 1 0 0 0 0 0 0 0 0 0 0 0 0 1 4 17 66 136 190 210 216 199 130 48 10 1 0 0 0 0 0 0 0 0 0 0 0 0 0 1 6 25 56 99 145 153 150 144 142 131 95 72 43 24 12 5 2 1 0 0 0 
0 0 0 0 0 1 4 16 36 61 121 183 214 222 205 154 111 82 76 82 71 59 36 18 6 1 0 0 0 0 0 0 0 0 1 2 9 31 81 154 208 223 217 189 107 41 16 5 2 1 0 0 0 0 0 0 0 0 0 0 0 0 0 0 0 3 18 87 175 217 221 205 161 84 22 4 1 0 0 0 0 0 0 0 0 0 0 0 0 0 2 10 30 62 106 157 187 202 199 163 97 45 28 17 8 3 1 0 0 0 0 0 
0 0 0 0 0 0 1 5 16 42 104 159 199 193 150 84 48 32 34 41 48 50 34 18 6 1 0 0 0 0 0 0 0 0 2 8 28 73 125 193 222 224 215 172 76 25 9 3 1 0 0 0 0 0 0 0 0 0 0 0 0 0 0 0 1 3 30 113 210 219 201 178 147 79 19 3 0 0 0 0 0 0 0 0 0 0 0 0 0 1 6 20 44 77 113 164 198 215 212 171 86 30 14 6 2 1 0 0 0 0 0 0 
0 0 0 0 0 0 0 2 11 43 105 161 190 159 98 37 14 9 15 26 43 53 46 27 8 1 0 0 0 0 0 0 0 2 9 30 81 144 182 196 197 183 185 161 74 23 7 2 1 0 0 0 0 0 0 0 0 0 0 0 0 0 0 0 1 11 71 186 221 187 155 148 134 83 22 3 0 0 0 0 0 0 0 0 0 0 0 0 0 2 9 24 56 89 124 157 180 189 192 159 73 19 6 2 0 0 0 0 0 0 0 0 
0 0 0 0 0 0 0 2 13 54 135 189 183 124 59 14 5 4 11 23 46 65 64 41 13 2 0 0 0 0 0 0 1 6 24 72 141 184 161 117 102 114 154 175 90 26 7 2 0 0 0 0 0 0 0 0 0 0 0 0 0 0 0 0 4 39 147 207 169 104 88 107 127 88 26 3 0 0 0 0 0 0 0 0 0 0 0 0 0 3 13 33 76 105 126 127 135 148 165 167 83 19 4 1 0 0 0 0 0 0 0 0 
0 0 0 0 0 0 0 2 18 72 152 193 166 97 37 8 4 5 16 36 70 93 81 47 13 1 0 0 0 0 0 0 1 9 41 108 182 167 90 44 42 72 142 182 107 29 6 1 0 0 0 0 0 0 0 0 0 0 0 0 0 0 0 1 14 87 181 161 69 39 50 100 143 93 25 3 0 0 0 0 0 0 0 0 0 0 0 0 0 4 17 45 95 122 122 105 92 115 154 172 96 20 3 1 0 0 0 0 0 0 0 0 
0 0 0 0 0 0 0 3 24 80 156 185 149 90 37 12 8 13 32 58 89 104 83 43 10 1 0 0 0 0 0 0 1 11 56 128 183 133 64 36 39 89 166 183 105 24 5 1 0 0 0 0 0 0 0 0 0 0 0 0 0 0 0 2 33 125 192 115 39 40 77 155 168 93 22 2 0 0 0 0 0 0 0 0 0 0 0 0 0 4 19 53 107 141 127 101 82 113 168 175 99 19 4 1 0 0 0 0 0 0 0 0 
0 0 0 0 0 0 0 4 27 87 144 175 145 115 70 35 29 44 69 89 105 102 68 25 7 0 0 0 0 0 0 0 1 14 69 140 183 147 101 85 100 164 196 162 78 15 3 1 1 0 0 0 0 0 0 0 0 0 0 0 0 0 0 3 53 158 200 136 85 109 157 183 155 67 13 1 0 0 0 0 0 0 0 0 0 0 0 0 0 5 23 57 108 150 161 151 146 176 204 171 85 15 3 1 0 0 0 0 0 0 0 0 
0 0 0 0 0 0 1 4 27 75 112 158 164 159 124 78 67 81 98 105 107 89 49 17 4 0 0 0 0 0 0 0 1 10 60 124 184 186 178 191 208 222 198 117 48 8 2 1 0 0 0 0 0 0 0 0 0 0 0 0 0 0 0 4 51 154 216 202 188 200 198 168 111 33 5 0 0 0 0 0 0 0 0 0 0 0 0 0 0 3 17 43 92 140 177 194 207 217 210 143 64 10 2 1 0 0 0 0 0 0 0 0 
0 0 0 0 0 0 1 5 24 52 92 143 180 185 155 126 109 95 88 90 79 63 29 8 2 0 0 0 0 0 0 0 0 4 31 84 148 177 210 224 221 192 123 63 17 3 1 0 0 0 0 0 0 0 0 0 0 0 0 0 0 0 0 3 33 107 180 203 212 205 170 122 39 7 1 0 0 0 0 0 0 0 0 0 0 0 0 0 0 1 7 26 64 98 138 167 190 183 155 104 34 5 1 0 0 0 0 0 0 0 0 0 
0 0 0 0 0 0 0 2 14 34 67 108 128 127 125 115 76 53 45 41 31 23 8 2 0 0 0 0 0 0 0 0 0 0 5 21 55 92 133 123 113 70 35 13 3 0 0 0 0 0 0 0 0 0 0 0 0 0 0 0 0 0 0 1 8 35 82 88 83 66 47 21 3 1 0 0 0 0 0 0 0 0 0 0 0 0 0 0 0 0 1 4 19 39 66 91 106 98 84 45 10 1 0 0 0 0 0 0 0 0 0 0 
0 0 0 0 0 0 0 0 3 8 17 25 24 23 18 13 9 8 6 4 3 2 1 0 0 0 0 0 0 0 0 0 0 0 0 0 2 4 5 4 3 1 1 0 0 0 0 0 0 0 0 0 0 0 0 0 0 0 0 0 0 0 0 0 0 1 1 1 0 0 0 0 0 0 0 0 0 0 0 0 0 0 0 0 0 0 0 0 0 0 0 0 1 2 4 7 7 6 4 2 1 0 0 0 0 0 0 0 0 0 0 0 
0 0 0 0 0 0 0 0 0 0 1 1 1 1 0 0 0 0 0 0 0 0 0 0 0 0 0 0 0 0 0 0 0 0 0 0 0 0 0 0 0 0 0 0 0 0 0 0 0 0 0 0 0 0 0 0 0 0 0 0 0 0 0 0 0 0 0 0 0 0 0 0 0 0 0 0 0 0 0 0 0 0 0 0 0 0 0 0 0 0 0 0 0 0 0 0 0 0 0 0 0 0 0 0 0 0 0 0 0 0 0 0 
0 0 0 0 0 0 0 0 0 0 0 0 0 0 0 0 0 0 0 0 0 0 0 0 0 0 0 0 0 0 0 0 0 0 0 0 0 0 0 0 0 0 0 0 0 0 0 0 0 0 0 0 0 0 0 0 0 0 0 0 0 0 0 0 0 0 0 0 0 0 0 0 0 0 0 0 0 0 0 0 0 0 0 0 0 0 0 0 0 0 0 0 0 0 0 0 0 0 0 0 0 0 0 0 0 0 0 0 0 0 0 0 
0 0 0 0 0 0 0 0 0 0 0 0 0 0 0 0 0 0 0 0 0 0 0 0 0 0 0 0 0 0 0 0 0 0 0 0 0 0 0 0 0 0 0 0 0 0 0 0 0 0 0 0 0 0 0 0 0 0 0 0 0 0 0 0 0 0 0 0 0 0 0 0 0 0 0 0 0 0 0 0 0 0 0 0 0 0 0 0 0 0 0 0 0 0 0 0 0 0 0 0 0 0 0 0 0 0 0 0 0 0 0 0 
0 0 0 0 0 0 0 0 0 0 0 0 0 0 0 0 0 0 0 0 0 0 0 0 0 0 0 0 0 0 0 0 0 0 0 0 0 0 0 0 0 0 0 0 0 0 0 0 0 0 0 0 0 0 0 0 0 0 0 0 0 0 0 0 0 0 0 0 0 0 0 0 0 0 0 0 0 0 0 0 0 0 0 0 0 0 0 0 0 0 0 0 0 0 0 0 0 0 0 0 0 0 0 0 0 0 0 0 0 0 0 0 
0 0 0 0 0 0 0 0 0 0 0 0 0 0 0 0 0 0 0 0 0 0 0 0 0 0 0 0 0 0 0 0 0 0 0 0 0 0 0 0 0 0 0 0 0 0 0 0 0 0 0 0 0 0 0 0 0 0 0 0 0 0 0 0 0 0 0 0 0 0 0 0 0 0 0 0 0 0 0 0 0 0 0 0 0 0 0 0 0 0 0 0 0 0 0 0 0 0 0 0 0 0 0 0 0 0 0 0 0 0 0 0 
0 0 0 0 0 0 0 0 0 0 0 2 4 5 5 4 3 1 0 0 0 0 0 0 0 0 0 0 0 0 0 0 0 0 0 0 0 0 0 0 0 0 0 0 0 0 0 0 0 0 0 0 0 0 0 0 0 0 0 0 0 0 0 0 0 0 0 0 0 0 0 0 0 0 0 0 0 0 0 0 0 0 0 0 0 0 0 0 0 0 0 0 0 0 0 0 0 0 1 3 4 4 4 2 1 0 0 0 0 0 0 0 
0 0 0 0 0 0 0 0 0 1 5 22 59 78 96 92 58 24 7 2 1 0 0 0 0 0 0 0 0 0 0 0 0 0 0 0 0 0 0 1 3 9 19 26 24 18 13 6 3 1 0 0 0 0 0 0 0 0 0 0 0 0 0 0 0 0 0 0 0 0 1 3 9 17 25 31 27 20 9 2 1 0 0 0 0 0 0 0 0 0 0 0 0 0 0 0 3 12 36 67 75 74 59 38 14 3 0 0 0 0 0 0 
0 0 0 0 0 0 0 0 0 2 14 62 150 190 202 184 126 58 18 6 2 1 0 0 0 0 0 0 0 0 0 0 0 0 0 0 0 0 2 12 44 91 129 158 156 136 104 71 33 12 4 1 0 0 0 0 0 0 0 0 0 0 0 0 0 0 0 1 7 19 40 73 115 138 153 147 134 103 59 22 7 2 0 0 0 0 0 0 0 0 0 0 0 0 0 3 19 65 114 158 169 166 132 83 30 6 1 0 0 0 0 0 
0 0 0 0 0 0 0 0 1 4 24 92 179 207 205 177 120 56 20 7 3 1 1 1 1 0 0 0 0 0 0 0 0 0 0 0 0 2 13 54 116 161 197 208 198 182 154 117 64 26 13 5 2 0 0 0 0 0 0 0 0 0 0 0 0 0 4 23 62 113 160 197 216 225 225 214 206 176 116 56 23 7 1 0 0 0 0 0 0 0 0 0 0 0 2 16 67 124 176 193 194 193 162 115 42 7 2 0 0 0 0 0 
0 0 0 0 0 0 0 0 1 7 39 113 176 191 177 140 90 42 17 7 4 3 3 3 2 1 0 0 0 0 0 0 0 0 0 0 2 9 41 98 160 186 182 154 145 148 153 142 81 32 16 7 3 1 0 0 0 0 0 0 0 0 0 0 1 6 31 85 164 212 230 232 223 208 193 206 215 192 123 54 24 6 0 0 0 0 0 0 0 0 0 0 0 1 10 52 114 171 177 163 162 176 160 120 33 4 1 0 0 0 0 0 
0 0 0 0 0 0 0 0 2 13 61 144 180 174 154 120 85 48 28 20 16 12 11 9 7 4 1 0 0 0 0 0 0 0 0 1 4 20 70 133 174 166 115 82 91 122 151 152 95 45 21 10 5 1 0 0 0 0 0 0 0 0 0 1 8 34 93 175 220 227 218 183 144 121 128 182 204 175 109 50 19 4 0 0 0 0 0 0 0 0 0 0 1 4 31 95 149 187 149 128 146 174 153 102 24 4 1 1 1 0 0 0 
0 0 0 0 0 0 0 0 3 21 84 170 181 166 143 119 92 61 47 45 40 38 30 20 14 7 2 1 0 0 0 0 0 0 0 1 5 27 89 157 171 123 74 60 83 127 170 159 105 52 22 8 4 2 0 0 0 0 0 0 0 0 0 3 22 80 167 217 225 198 145 81 64 72 121 193 202 140 75 27 8 1 0 0 0 0 0 0 0 0 0 0 1 9 60 126 176 180 128 110 138 161 136 78 19 4 1 1 1 1 0 0 
0 0 0 0 0 0 0 1 4 27 100 194 200 180 154 131 108 88 83 83 83 81 66 39 25 11 3 1 0 0 0 0 0 0 0 1 6 33 97 165 165 106 75 74 115 167 176 144 95 47 16 5 3 1 0 0 0 0 0 0 0 0 1 6 40 120 205 221 204 129 79 50 68 132 197 207 165 84 36 9 2 0 0 0 0 0 0 0 0 0 0 0 2 16 77 156 186 157 129 141 165 155 107 56 13 3 1 1 1 1 1 0 
0 0 0 0 0 0 0 1 6 28 95 180 204 199 180 163 143 127 119 104 91 89 69 42 28 11 2 1 0 0 0 0 0 0 0 1 7 33 91 154 159 122 109 126 162 179 152 105 59 25 7 3 2 1 0 0 0 0 0 0 0 0 1 11 57 135 201 209 174 112 82 92 147 206 208 156 84 32 9 1 0 0 0 0 0 0 0 0 0 0 0 0 4 24 83 151 162 148 152 173 171 128 65 27 7 2 1 1 2 2 1 0 
0 0 0 0 0 0 0 1 5 21 66 146 207 218 211 192 165 148 123 89 73 64 42 23 13 4 1 0 0 0 0 0 0 0 0 1 6 26 75 144 173 163 159 179 193 162 111 61 25 9 3 2 1 0 0 0 0 0 0 0 0 0 2 14 49 97 163 189 184 161 153 174 211 217 157 79 26 6 1 0 0 0 0 0 0 0 0 0 0 0 0 1 7 29 77 129 145 159 174 184 160 94 41 14 4 2 2 2 2 1 0 0 
0 0 0 0 0 0 0 1 6 19 56 127 209 226 221 205 177 155 121 73 45 27 13 6 2 1 0 0 0 0 0 0 0 0 0 1 5 20 62 127 185 197 203 209 190 124 64 27 9 4 2 1 0 0 0 0 0 0 0 0 0 0 1 7 26 58 107 162 194 202 208 220 225 172 78 22 4 1 0 0 0 0 0 0 0 0 0 0 0 0 0 1 9 32 69 110 142 172 188 178 137 58 21 9 4 3 3 2 1 1 0 0 
0 0 0 0 0 0 0 2 7 18 53 132 198 206 201 194 174 154 111 59 26 9 2 1 0 0 0 0 0 0 0 0 0 0 0 1 5 17 53 119 189 214 225 212 166 89 36 12 4 2 0 0 0 0 0 0 0 0 0 0 0 0 1 5 18 50 95 154 203 223 228 224 208 116 41 7 1 0 0 0 0 0 0 0 0 0 0 0 0 0 0 2 13 35 68 116 173 201 204 162 97 37 14 8 6 4 3 1 1 0 0 0 
0 0 0 0 0 0 0 2 7 21 67 137 167 164 155 152 147 149 109 52 14 3 1 0 0 0 0 0 0 0 0 0 0 0 0 1 5 17 58 126 198 217 224 202 143 61 20 7 3 1 0 0 0 0 0 0 0 0 0 0 0 0 1 6 24 71 130 192 222 231 229 215 179 83 24 3 0 0 0 0 0 0 0 0 0 0 0 0 0 0 0 2 14 37 80 143 201 218 211 151 81 30 16 13 11 6 2 1 0 0 0 0 
0 0 0 0 0 0 1 4 13 39 93 142 138 109 87 88 112 151 124 59 12 2 0 0 0 0 0 0 0 0 0 0 0 0 0 1 7 25 74 149 199 204 207 185 132 53 16 6 2 1 0 0 0 0 0 0 0 0 0 0 0 0 2 12 56 129 179 213 221 221 218 204 165 76 20 4 1 0 0 0 0 0 0 0 0 0 0 0 0 0 0 3 16 48 96 173 208 216 203 150 92 35 18 14 8 4 1 0 0 0 0 0 
0 0 0 0 0 0 2 9 34 82 131 136 95 52 37 46 88 147 132 66 14 3 0 0 0 0 0 0 0 0 0 0 0 0 0 3 15 49 111 177 191 178 180 172 128 53 17 6 2 1 0 0 0 0 0 0 0 0 0 0 0 1 6 39 123 189 204 207 203 178 185 190 184 115 39 7 1 0 0 0 0 0 0 0 0 0 0 0 0 0 0 3 21 65 131 197 204 196 183 156 96 33 14 8 4 2 1 0 0 0 0 0 
0 0 0 0 0 1 6 21 63 114 142 108 60 32 30 51 102 159 136 64 13 2 0 0 0 0 0 0 0 0 0 0 0 0 1 6 29 81 149 184 160 136 142 160 135 66 23 6 2 1 0 0 0 0 0 0 0 0 0 0 0 2 16 82 171 209 197 172 142 116 133 164 192 161 71 11 1 0 0 0 0 0 0 0 0 0 0 0 0 0 1 4 24 76 155 197 178 162 163 155 95 34 13 5 2 1 0 0 0 0 0 0 
0 0 0 0 0 2 12 33 80 120 133 102 66 47 57 83 149 184 132 48 6 1 0 0 0 0 0 0 0 0 0 0 0 0 2 11 49 106 158 160 107 91 110 153 148 83 29 6 2 1 0 0 0 0 0 0 0 0 0 0 0 3 27 110 198 212 173 118 77 71 92 144 200 180 85 14 1 0 0 0 0 0 0 0 0 0 0 0 0 0 1 4 26 82 160 182 145 141 154 154 107 44 15 4 1 1 0 0 0 0 0 0 
0 0 0 0 0 3 13 35 79 114 140 128 105 90 104 146 202 177 95 25 2 0 0 0 0 0 0 0 0 0 0 0 0 0 3 14 63 119 154 136 80 82 117 175 168 92 28 6 1 1 0 0 0 0 0 0 0 0 0 0 1 5 38 122 206 208 170 109 75 75 101 163 207 173 83 16 1 0 0 0 0 0 0 0 0 0 0 0 0 0 0 3 24 75 148 173 131 139 159 160 114 45 16 5 2 1 0 0 0 0 0 0 
0 0 0 0 0 3 14 33 73 111 153 169 166 173 193 209 194 119 50 9 1 0 0 0 0 0 0 0 0 0 0 0 0 0 3 16 63 116 155 149 109 116 159 199 170 80 21 4 1 0 0 0 0 0 0 0 0 0 0 0 1 8 47 124 204 208 185 149 123 125 152 191 204 144 65 13 1 0 0 0 0 0 0 0 0 0 0 0 0 0 0 3 17 62 136 185 179 187 191 168 108 41 13 5 2 1 0 0 0 0 0 0 
0 0 0 0 0 1 8 20 46 81 127 166 198 215 217 201 135 61 21 4 0 0 0 0 0 0 0 0 0 0 0 0 0 0 2 12 47 102 157 182 183 199 218 207 135 50 10 2 0 0 0 0 0 0 0 0 0 0 0 0 1 7 41 105 178 200 200 192 181 187 199 200 182 107 46 9 1 0 0 0 0 0 0 0 0 0 0 0 0 0 0 2 10 38 106 176 201 206 199 153 84 28 9 3 1 1 0 0 0 0 0 0 
0 0 0 0 0 0 2 6 17 32 63 106 150 173 162 129 59 23 7 1 0 0 0 0 0 0 0 0 0 0 0 0 0 0 1 7 33 82 144 204 223 229 214 154 71 18 3 1 0 0 0 0 0 0 0 0 0 0 0 0 0 3 24 69 123 149 177 196 202 205 196 167 117 58 26 5 1 0 0 0 0 0 0 0 0 0 0 0 0 0 0 1 5 20 57 105 140 152 143 109 46 12 4 2 1 0 0 0 0 0 0 0 
0 0 0 0 0 0 0 0 1 4 12 25 40 48 46 24 7 2 1 0 0 0 0 0 0 0 0 0 0 0 0 0 0 0 0 1 11 35 83 128 165 162 113 62 17 3 0 0 0 0 0 0 0 0 0 0 0 0 0 0 0 1 5 19 44 66 105 125 139 131 111 85 46 17 6 1 0 0 0 0 0 0 0 0 0 0 0 0 0 0 0 0 1 6 20 40 55 65 58 39 13 3 1 0 0 0 0 0 0 0 0 0 
0 0 0 0 0 0 0 0 0 0 0 0 1 1 1 0 0 0 0 0 0 0 0 0 0 0 0 0 0 0 0 0 0 0 0 0 0 2 5 7 9 9 5 3 1 0 0 0 0 0 0 0 0 0 0 0 0 0 0 0 0 0 0 1 2 3 5 7 8 7 5 4 3 2 1 0 0 0 0 0 0 0 0 0 0 0 0 0 0 0 0 0 0 0 1 2 2 3 2 1 1 0 0 0 0 0 0 0 0 0 0 0 
0 0 0 0 0 0 0 0 0 0 0 0 0 0 0 0 0 0 0 0 0 0 0 0 0 0 0 0 0 0 0 0 0 0 0 0 0 0 0 0 0 0 0 0 0 0 0 0 0 0 0 0 0 0 0 0 0 0 0 0 0 0 0 0 0 0 0 0 0 0 0 0 0 0 0 0 0 0 0 0 0 0 0 0 0 0 0 0 0 0 0 0 0 0 0 0 0 0 0 0 0 0 0 0 0 0 0 0 0 0 0 0 
0 0 0 0 0 0 0 0 0 0 0 0 0 0 0 0 0 0 0 0 0 0 0 0 0 0 0 0 0 0 0 0 0 0 0 0 0 0 0 0 0 0 0 0 0 0 0 0 0 0 0 0 0 0 0 0 0 0 0 0 0 0 0 0 0 0 0 0 0 0 0 0 0 0 0 0 0 0 0 0 0 0 0 0 0 0 0 0 0 0 0 0 0 0 0 0 0 0 0 0 0 0 0 0 0 0 0 0 0 0 0 0 
0 0 0 0 0 0 0 0 0 0 0 0 0 0 0 0 0 0 0 0 0 0 0 0 0 0 0 0 0 0 0 0 0 0 0 0 0 0 0 0 0 0 0 0 0 0 0 0 0 0 0 0 0 0 0 0 0 0 0 0 0 0 0 0 0 0 0 0 0 0 0 0 0 0 0 0 0 0 0 0 0 0 0 0 0 0 0 0 0 0 0 0 0 0 0 0 0 0 0 0 0 0 0 0 0 0 0 0 0 0 0 0 
0 0 0 0 0 0 0 0 0 0 0 0 0 0 0 0 0 0 0 0 0 0 0 0 0 0 0 0 0 0 0 0 0 0 0 0 0 0 0 0 0 0 0 0 0 0 0 0 0 0 0 0 0 0 0 0 0 0 0 0 0 0 0 0 0 0 0 0 0 0 0 0 0 0 0 0 0 0 0 0 0 0 0 0 0 0 0 0 0 0 0 0 0 0 0 0 0 0 0 0 0 0 0 0 0 0 0 0 0 0 0 0 
0 0 0 0 0 0 0 0 0 0 0 0 0 0 0 0 0 0 0 0 0 0 0 0 0 0 0 0 0 0 0 0 0 0 0 0 0 0 0 0 0 0 0 0 0 0 0 0 0 0 0 0 0 0 0 0 0 0 0 0 0 0 0 0 0 0 0 0 0 0 0 0 0 0 0 0 0 0 0 0 0 0 0 0 0 0 0 0 0 0 0 0 0 0 0 0 0 0 0 0 0 0 0 0 0 0 0 0 0 0 0 0 
0 0 0 0 0 0 0 0 0 0 0 0 0 0 0 0 0 0 0 0 0 0 0 0 0 0 0 0 0 0 0 0 0 0 0 0 0 0 0 0 0 0 1 1 1 1 1 0 0 0 0 0 0 0 0 0 0 0 0 0 0 0 0 0 0 0 0 0 0 1 1 2 2 1 1 1 0 0 0 0 0 0 0 0 0 0 0 0 0 0 0 0 0 0 0 0 0 0 0 0 0 0 0 0 0 0 0 0 0 0 0 0 
0 0 0 0 0 0 0 0 0 0 0 0 2 7 10 12 12 16 21 12 4 1 1 0 0 0 0 0 0 0 0 0 0 0 0 0 0 0 0 1 7 25 52 68 54 39 24 8 2 0 0 0 0 0 0 0 0 0 0 0 0 0 0 0 0 0 1 7 24 60 107 137 114 79 50 27 13 4 1 0 0 0 0 0 0 0 0 0 0 0 0 0 0 0 0 1 3 10 21 29 27 25 22 9 2 1 0 0 0 0 0 0 
0 0 0 0 0 0 0 0 0 1 4 20 55 94 140 172 197 199 193 155 88 28 12 6 3 1 0 0 0 0 0 0 0 0 0 0 0 0 3 20 63 118 181 194 171 142 90 40 10 2 1 0 0 0 0 0 0 0 0 0 0 0 0 0 2 6 23 60 106 145 157 157 140 126 105 84 46 18 4 1 0 0 0 0 0 0 0 0 0 0 0 0 0 0 2 14 53 102 149 174 174 165 135 76 22 6 2 1 0 0 0 0 
0 0 0 0 0 0 0 0 2 13 57 150 199 217 223 233 233 230 229 216 148 67 33 17 8 2 0 0 0 0 0 0 0 0 0 0 0 4 33 113 175 207 218 216 209 197 142 71 22 5 2 1 0 0 0 0 0 0 0 0 0 0 0 1 5 19 50 93 121 106 74 62 59 82 103 105 69 30 10 1 0 0 0 0 0 0 0 0 0 0 0 0 0 2 17 74 153 191 205 210 202 196 175 126 50 13 6 2 1 0 0 0 
0 0 0 0 0 0 0 2 12 57 167 230 230 209 201 178 167 178 197 208 179 105 46 18 6 2 0 0 0 0 0 0 0 0 0 0 3 29 116 209 211 195 170 161 174 187 165 105 35 7 2 1 0 0 0 0 0 0 0 0 0 0 0 1 8 29 57 76 59 34 20 14 19 39 76 114 82 31 8 1 0 0 0 0 0 0 0 0 0 0 0 0 1 9 58 162 204 190 162 130 126 146 156 162 81 20 6 2 1 0 0 0 
0 0 0 0 0 0 1 7 41 127 219 221 170 123 94 54 46 69 123 187 185 130 67 26 8 3 0 0 0 0 0 0 0 0 0 1 18 91 198 218 172 118 86 80 103 145 164 133 58 13 4 1 1 0 0 0 0 0 0 0 0 0 0 2 9 38 71 71 36 14 6 5 9 26 78 124 84 30 7 1 0 0 0 0 0 0 0 0 0 0 0 0 3 32 128 212 192 126 74 47 51 80 128 168 104 33 10 3 1 0 0 0 
0 0 0 0 0 0 2 12 69 161 219 184 118 63 23 12 12 30 88 190 196 141 78 32 11 3 0 0 0 0 0 0 0 0 0 2 43 143 223 200 118 68 40 37 68 127 174 145 69 18 5 2 1 0 0 0 0 0 0 0 0 0 0 1 9 43 75 64 25 9 5 4 11 42 101 120 73 24 5 1 0 0 0 0 0 0 0 0 0 0 0 0 8 66 176 214 150 73 30 17 25 57 129 181 127 43 13 3 1 1 0 0 
0 0 0 0 0 0 2 15 84 167 208 152 83 32 12 9 13 52 136 214 190 120 64 28 10 3 0 0 0 0 0 0 0 0 0 5 63 168 222 160 80 37 21 32 80 152 185 138 66 19 6 2 1 1 0 0 0 0 0 0 0 0 0 1 6 33 64 70 44 18 11 12 29 75 116 103 49 13 2 0 0 0 0 0 0 0 0 0 0 0 0 1 12 82 178 201 122 52 21 17 36 110 182 185 112 37 10 2 1 1 0 0 
0 0 0 0 0 0 2 19 83 150 189 151 93 44 25 28 58 133 213 218 163 88 41 17 7 2 0 0 0 0 0 0 0 0 1 9 74 170 204 135 63 29 24 54 121 194 185 110 45 14 4 1 1 1 0 0 0 0 0 0 0 0 0 0 4 18 55 108 124 77 57 59 87 112 97 57 23 5 1 0 0 0 0 0 0 0 0 0 0 0 0 1 13 77 159 188 140 76 43 46 94 180 201 153 71 19 5 1 1 0 0 0 
0 0 0 0 0 0 3 20 60 107 159 171 148 97 74 78 136 209 232 194 114 53 20 8 3 1 0 0 0 0 0 0 0 0 1 11 67 136 176 135 81 48 48 94 177 205 153 83 30 8 1 0 0 0 0 0 0 0 0 0 0 0 0 0 2 10 48 119 159 150 131 124 131 116 74 34 9 2 0 0 0 0 0 0 0 0 0 0 0 0 0 1 10 49 102 160 168 140 105 112 171 207 175 103 35 7 1 0 0 0 0 0 
0 0 0 0 0 0 1 9 28 55 104 161 171 159 155 182 222 236 218 143 65 21 7 3 1 0 0 0 0 0 0 0 0 0 1 10 46 90 125 142 133 120 121 161 206 178 111 48 12 2 0 0 0 0 0 0 0 0 0 0 0 0 0 0 2 10 39 108 182 202 192 173 148 101 51 18 4 1 0 0 0 0 0 0 0 0 0 0 0 0 0 1 5 21 51 106 153 177 178 193 212 188 112 44 10 1 0 0 0 0 0 0 
0 0 0 0 0 0 0 2 8 21 65 142 176 204 217 227 236 223 163 86 31 8 2 1 0 0 0 0 0 0 0 0 0 0 0 5 24 49 84 138 163 181 196 206 206 147 80 27 5 1 0 0 0 0 0 0 0 0 0 0 0 0 0 1 4 13 43 107 175 200 196 179 137 82 42 14 3 1 0 0 0 0 0 0 0 0 0 0 0 0 0 0 2 8 26 73 141 195 211 213 204 140 65 19 3 0 0 0 0 0 0 0 
0 0 0 0 0 0 0 1 2 11 60 142 201 227 233 233 227 185 108 47 13 3 1 0 0 0 0 0 0 0 0 0 0 0 0 2 10 28 78 143 190 216 224 216 195 133 63 18 3 0 0 0 0 0 0 0 0 0 0 0 0 0 0 1 6 21 56 116 162 167 167 169 136 98 49 18 5 1 0 0 0 0 0 0 0 0 0 0 0 0 0 0 1 3 21 83 166 213 217 205 184 117 45 9 1 0 0 0 0 0 0 0 
0 0 0 0 0 0 0 0 2 16 82 165 213 220 215 208 186 148 87 34 9 2 1 0 0 0 0 0 0 0 0 0 0 0 0 1 6 25 86 147 195 207 198 187 179 136 67 19 3 0 0 0 0 0 0 0 0 0 0 0 0 0 0 3 15 40 80 119 131 115 107 121 126 119 73 27 7 1 0 0 0 0 0 0 0 0 0 0 0 0 0 0 1 4 31 109 195 207 188 177 171 121 43 8 1 0 0 0 0 0 0 0 
0 0 0 0 0 0 0 1 7 56 151 203 207 186 165 155 136 121 76 32 10 2 1 0 0 0 0 0 0 0 0 0 0 0 0 1 8 39 109 178 198 165 134 126 146 144 94 28 4 0 0 0 0 0 0 0 0 0 0 0 0 0 2 9 41 82 107 101 75 41 31 44 83 111 94 45 10 2 0 0 0 0 0 0 0 0 0 0 0 0 0 0 1 11 68 168 204 169 137 140 153 127 50 8 1 0 0 0 0 0 0 0 
0 0 0 0 0 0 0 4 45 146 207 205 159 114 94 88 85 91 75 38 12 3 1 0 0 0 0 0 0 0 0 0 0 0 0 1 13 61 149 203 178 108 71 69 125 159 129 47 6 0 0 0 0 0 0 0 0 0 0 0 0 1 5 21 74 119 109 56 23 9 9 15 46 100 96 53 14 3 1 0 0 0 0 0 0 0 0 0 0 0 0 0 4 35 139 201 165 96 73 96 145 134 61 9 1 0 0 0 0 0 0 0 
0 0 0 0 0 0 2 29 138 222 211 145 80 48 37 43 58 79 81 45 15 4 1 0 0 0 0 0 0 0 0 0 0 0 0 1 20 83 182 200 140 67 45 59 125 178 152 68 8 1 0 0 0 0 0 0 0 0 0 0 0 1 9 36 96 142 85 23 7 3 4 11 42 103 101 51 12 4 1 0 0 0 0 0 0 0 0 0 0 0 0 1 12 76 181 180 86 39 41 83 163 139 57 7 0 0 0 0 0 0 0 0 
0 0 0 0 0 1 10 90 211 232 178 87 52 40 41 52 78 107 90 41 12 3 1 0 0 0 0 0 0 0 0 0 0 0 0 1 23 95 198 188 119 65 55 76 128 194 159 73 9 1 0 0 0 0 0 0 0 0 0 0 0 2 10 39 105 146 74 21 8 6 9 26 75 133 117 47 10 3 1 0 0 0 0 0 0 0 0 0 0 0 0 2 26 112 197 148 58 40 54 118 185 129 44 5 0 0 0 0 0 0 0 0 
0 0 0 0 0 3 30 136 228 222 156 103 91 96 107 100 110 122 92 34 7 2 0 0 0 0 0 0 0 0 0 0 0 0 0 2 20 90 189 191 137 96 85 109 159 204 159 63 8 1 0 0 0 0 0 0 0 0 0 0 0 2 9 33 101 147 118 65 35 30 47 93 154 167 111 32 6 2 0 0 0 0 0 0 0 0 0 0 0 0 0 3 43 142 206 147 78 75 107 174 188 102 29 3 0 0 0 0 0 0 0 0 
0 0 0 0 0 4 36 132 221 215 201 200 197 201 183 149 132 101 52 14 3 1 0 0 0 0 0 0 0 0 0 0 0 0 0 1 11 52 121 185 173 160 156 169 201 200 112 38 5 0 0 0 0 0 0 0 0 0 0 0 0 0 3 15 59 110 155 154 148 143 161 180 179 140 64 12 2 0 0 0 0 0 0 0 0 0 0 0 0 0 0 4 47 146 211 186 158 168 187 195 156 70 18 2 0 0 0 0 0 0 0 0 
0 0 0 0 0 3 26 95 181 211 227 234 232 221 184 155 90 39 13 4 1 0 0 0 0 0 0 0 0 0 0 0 0 0 0 0 4 19 64 132 163 176 198 207 196 133 53 20 3 0 0 0 0 0 0 0 0 0 0 0 0 0 0 4 17 45 96 128 157 169 159 132 91 41 13 2 0 0 0 0 0 0 0 0 0 0 0 0 0 0 0 4 39 112 190 214 218 219 196 157 91 30 6 0 0 0 0 0 0 0 0 0 
0 0 0 0 0 1 8 37 89 126 162 150 128 98 61 47 14 5 2 1 0 0 0 0 0 0 0 0 0 0 0 0 0 0 0 0 1 6 22 51 81 106 134 136 95 42 17 5 1 0 0 0 0 0 0 0 0 0 0 0 0 0 0 0 1 5 11 18 28 31 22 12 5 2 1 0 0 0 0 0 0 0 0 0 0 0 0 0 0 0 0 2 15 54 115 139 135 118 91 59 19 5 1 0 0 0 0 0 0 0 0 0 
0 0 0 0 0 0 0 1 3 4 3 2 1 1 1 0 0 0 0 0 0 0 0 0 0 0 0 0 0 0 0 0 0 0 0 0 0 0 1 3 5 7 7 7 5 3 1 0 0 0 0 0 0 0 0 0 0 0 0 0 0 0 0 0 0 0 0 0 0 0 0 0 0 0 0 0 0 0 0 0 0 0 0 0 0 0 0 0 0 0 0 0 1 3 5 4 4 3 2 1 0 0 0 0 0 0 0 0 0 0 0 0 
0 0 0 0 0 0 0 0 0 0 0 0 0 0 0 0 0 0 0 0 0 0 0 0 0 0 0 0 0 0 0 0 0 0 0 0 0 0 0 0 0 0 0 0 0 0 0 0 0 0 0 0 0 0 0 0 0 0 0 0 0 0 0 0 0 0 0 0 0 0 0 0 0 0 0 0 0 0 0 0 0 0 0 0 0 0 0 0 0 0 0 0 0 0 0 0 0 0 0 0 0 0 0 0 0 0 0 0 0 0 0 0 
0 0 0 0 0 0 0 0 0 0 0 0 0 0 0 0 0 0 0 0 0 0 0 0 0 0 0 0 0 0 0 0 0 0 0 0 0 0 0 0 0 0 0 0 0 0 0 0 0 0 0 0 0 0 0 0 0 0 0 0 0 0 0 0 0 0 0 0 0 0 0 0 0 0 0 0 0 0 0 0 0 0 0 0 0 0 0 0 0 0 0 0 0 0 0 0 0 0 0 0 0 0 0 0 0 0 0 0 0 0 0 0 
